; generated by PrusaSlicer 2.3.0+win64 on 2021-03-11 at 09:51:38 UTC

; 

; external perimeters extrusion width = 0.45mm
; perimeters extrusion width = 0.45mm
; infill extrusion width = 0.45mm
; solid infill extrusion width = 0.45mm
; top infill extrusion width = 0.40mm
; first layer extrusion width = 0.42mm

M73 P0 R46
M73 Q0 S46
M201 X1000 Y1000 Z200 E5000 ; sets maximum accelerations, mm/sec^2
M203 X200 Y200 Z12 E120 ; sets maximum feedrates, mm/sec
M204 P1250 R1250 T1250 ; sets acceleration (P, T) and retract acceleration (R), mm/sec^2
M205 X8.00 Y8.00 Z0.40 E4.50 ; sets the jerk limits, mm/sec
M205 S0 T0 ; sets the minimum extruding and travel feed rate, mm/sec
M107
;TYPE:Custom
M862.3 P "MK3S" ; printer model check
M862.1 P0.4 ; nozzle diameter check
M115 U3.9.3 ; tell printer latest fw version
G90 ; use absolute coordinates
M83 ; extruder relative mode
M104 S215 ; set extruder temp
M140 S55 ; set bed temp
M190 S55 ; wait for bed temp
M109 S215 ; wait for extruder temp
G28 W ; home all without mesh bed level
G80 ; mesh bed leveling
G1 Y-3.0 F1000.0 ; go outside print area
G92 E0.0
G1 X60.0 E9.0 F1000.0 ; intro line
G1 X100.0 E12.5 F1000.0 ; intro line
G92 E0.0
M221 S95

; Don't change E values below. Excessive value can damage the printer.
M907 E430 ; set extruder motor current
G21 ; set units to millimeters
G90 ; use absolute coordinates
M83 ; use relative distances for extrusion
M900 K0.05 ; Filament gcode LA 1.5
M900 K30 ; Filament gcode LA 1.0
;LAYER_CHANGE
;Z:0.2
;HEIGHT:0.2
;BEFORE_LAYER_CHANGE
G92 E0.0
;0.2


G1 E-0.80000 F2100.000
G1 Z0.400 F10800.000
;AFTER_LAYER_CHANGE
;0.2
G1 X109.675 Y83.094
G1 Z0.200
G1 E0.80000 F2100.000
M204 S1000
;TYPE:Skirt
;WIDTH:0.42
G1 F1200.000
G1 X110.607 Y82.910 E0.02980
G1 X139.672 Y82.909 E0.91132
G1 X140.689 Y83.105 E0.03246
G1 X141.561 Y83.662 E0.03246
G1 X142.166 Y84.503 E0.03246
G1 X142.417 Y85.503 E0.03233
G1 X142.422 Y93.688 E0.25664
G1 X142.216 Y108.501 E0.46452
G1 X142.135 Y109.052 E0.01745
G1 X141.944 Y109.575 E0.01745
G1 X141.655 Y110.046 E0.01733
G1 X141.275 Y110.453 E0.01745
G1 X140.458 Y110.946 E0.02993
G1 X139.525 Y111.131 E0.02980
G1 X110.440 Y111.131 E0.91196
G1 X109.862 Y111.065 E0.01822
G1 X109.312 Y110.879 E0.01822
G1 X108.813 Y110.581 E0.01822
G1 X108.387 Y110.186 E0.01822
G1 X107.895 Y109.368 E0.02993
G1 X107.711 Y108.431 E0.02993
G1 X107.710 Y100.353 E0.25330
G1 X107.914 Y85.613 E0.46220
G1 X107.984 Y85.044 E0.01796
G1 X108.172 Y84.498 E0.01809
G1 X108.467 Y84.007 E0.01796
G1 X108.857 Y83.588 E0.01796
G1 X109.623 Y83.125 E0.02805
G1 X109.814 Y83.447 F10800.000
G1 F1200.000
G1 X110.624 Y83.286 E0.02587
G1 X139.672 Y83.286 E0.91079
G1 X140.553 Y83.457 E0.02813
G1 X141.308 Y83.942 E0.02813
M73 P0 R45
G1 X141.829 Y84.672 E0.02813
G1 X142.042 Y85.544 E0.02813
G1 X142.045 Y93.682 E0.25517
G1 X141.839 Y108.479 E0.46398
G1 X141.602 Y109.417 E0.03036
G1 X141.013 Y110.181 E0.03024
G1 X140.309 Y110.599 E0.02567
G1 X139.509 Y110.754 E0.02555
G1 X110.445 Y110.754 E0.91126
G1 X109.943 Y110.696 E0.01585
G1 X109.464 Y110.534 E0.01585
G1 X109.031 Y110.273 E0.01585
G1 X108.662 Y109.927 E0.01585
G1 X108.242 Y109.220 E0.02579
G1 X108.088 Y108.412 E0.02579
G1 X108.087 Y100.354 E0.25266
G1 X108.291 Y85.623 E0.46195
G1 X108.353 Y85.124 E0.01574
G1 X108.516 Y84.654 E0.01562
G1 X108.776 Y84.225 E0.01574
G1 X109.120 Y83.859 E0.01574
G1 X109.763 Y83.477 E0.02345
;WIPE_START
G1 F8640.000
G1 X110.624 Y83.286 E-0.20364
G1 X113.033 Y83.286 E-0.55636
;WIPE_END
G1 E-0.04000 F2100.000
G1 Z0.600 F10800.000
G1 X142.856 Y97.129
M73 Q0 S45
G1 Z0.200
G1 E0.80000 F2100.000
G1 F1200.000
G1 X143.176 Y97.440 E0.01402
G1 X143.798 Y98.439 E0.03689
G1 X144.172 Y99.821 E0.04489
G1 X144.162 Y109.007 E0.28803
G1 X143.742 Y110.438 E0.04676
G1 X143.157 Y111.340 E0.03370
G1 X142.367 Y112.126 E0.03494
G1 X141.221 Y112.787 E0.04149
G1 X139.905 Y113.091 E0.04234
G1 X109.951 Y113.091 E0.93920
G1 X108.414 Y112.660 E0.05005
G1 X107.504 Y112.072 E0.03396
G1 X106.716 Y111.281 E0.03500
G1 X106.054 Y110.134 E0.04153
G1 X105.751 Y108.814 E0.04245
G1 X105.774 Y99.692 E0.28601
G1 X106.138 Y98.422 E0.04142
G1 X106.708 Y97.494 E0.03415
G1 X107.275 Y96.913 E0.02547
G1 X106.795 Y96.400 E0.02203
G1 X106.255 Y95.413 E0.03527
G1 X105.968 Y94.229 E0.03820
G1 X105.970 Y85.033 E0.28833
G1 X106.391 Y83.602 E0.04677
G1 X106.975 Y82.700 E0.03370
G1 X107.765 Y81.914 E0.03494
G1 X108.912 Y81.253 E0.04149
G1 X110.228 Y80.950 E0.04235
G1 X140.154 Y80.953 E0.93833
G1 X141.103 Y81.137 E0.03028
G1 X142.011 Y81.528 E0.03101
G1 X143.230 Y82.552 E0.04990
G1 X144.021 Y83.769 E0.04552
G1 X144.382 Y85.156 E0.04494
G1 X144.342 Y94.461 E0.29174
G1 X143.971 Y95.670 E0.03966
G1 X143.423 Y96.548 E0.03246
G1 X142.898 Y97.086 E0.02355
G1 X142.566 Y96.883 F10800.000
G1 F1200.000
G1 X143.114 Y96.330 E0.02441
G1 X143.638 Y95.491 E0.03102
G1 X143.965 Y94.431 E0.03478
G1 X144.005 Y85.180 E0.29007
G1 X143.664 Y83.895 E0.04167
G1 X142.965 Y82.821 E0.04018
M73 Q1 S45
G1 X141.834 Y81.862 E0.04647
G1 X141.009 Y81.503 E0.02823
G1 X140.136 Y81.330 E0.02791
G1 X110.249 Y81.327 E0.93709
M73 P1 R45
G1 X109.074 Y81.595 E0.03779
G1 X108.012 Y82.200 E0.03832
G1 X107.280 Y82.923 E0.03224
G1 X106.722 Y83.784 E0.03219
G1 X106.347 Y85.060 E0.04170
G1 X106.345 Y94.207 E0.28679
G1 X106.598 Y95.254 E0.03377
G1 X107.114 Y96.196 E0.03367
G1 X107.573 Y96.675 E0.02081
G1 X107.566 Y97.157 F10800.000
G1 F1200.000
G1 X107.018 Y97.711 E0.02443
G1 X106.472 Y98.598 E0.03264
G1 X106.151 Y99.719 E0.03658
G1 X106.128 Y108.794 E0.28453
G1 X106.396 Y109.971 E0.03786
G1 X107.002 Y111.034 E0.03836
G1 X107.726 Y111.767 E0.03229
G1 X108.594 Y112.328 E0.03241
G1 X109.976 Y112.714 E0.04499
G1 X139.884 Y112.714 E0.93774
G1 X141.059 Y112.446 E0.03778
G1 X142.120 Y111.840 E0.03832
G1 X142.852 Y111.117 E0.03224
G1 X143.410 Y110.256 E0.03219
G1 X143.785 Y108.980 E0.04170
G1 X143.795 Y99.845 E0.28641
G1 X143.464 Y98.615 E0.03996
G1 X142.871 Y97.663 E0.03516
G1 X142.559 Y97.374 E0.01331
G1 X142.552 Y97.874 F10800.000
G1 F1200.000
G1 X143.129 Y98.790 E0.03394
G1 X143.418 Y99.870 E0.03504
G1 X143.408 Y108.953 E0.28480
G1 X143.079 Y110.074 E0.03663
G1 X142.547 Y110.895 E0.03067
G1 X141.875 Y111.553 E0.02950
G1 X140.898 Y112.103 E0.03516
G1 X139.863 Y112.336 E0.03326
G1 X110.002 Y112.336 E0.93629
G1 X108.773 Y111.995 E0.03997
G1 X107.980 Y111.486 E0.02956
G1 X107.289 Y110.787 E0.03082
G1 X106.738 Y109.811 E0.03514
G1 X106.505 Y108.774 E0.03332
G1 X106.528 Y99.747 E0.28306
G1 X106.807 Y98.773 E0.03174
G1 X107.327 Y97.928 E0.03113
G1 X107.559 Y97.696 E0.01026
;WIPE_START
G1 F8640.000
G1 X107.327 Y97.928 E-0.07557
G1 X106.807 Y98.773 E-0.22923
G1 X106.528 Y99.747 E-0.23374
G1 X106.526 Y100.706 E-0.22146
;WIPE_END
G1 E-0.04000 F2100.000
G1 Z0.600 F10800.000
G1 X108.322 Y97.038
G1 Z0.200
G1 E0.80000 F2100.000
G1 F1200.000
G1 X108.403 Y96.989 E0.00297
G1 X108.324 Y96.908 E0.00356
;WIPE_START
G1 F8640.000
G1 X108.403 Y96.989 E-0.02619
G1 X108.322 Y97.038 E-0.02187
;WIPE_END
G1 E-0.75195 F2100.000
G1 Z0.600 F10800.000
G1 X107.580 Y96.144
G1 Z0.200
G1 E0.80000 F2100.000
G1 F1200.000
G1 X107.432 Y95.992 E0.00667
G1 X106.941 Y95.096 E0.03202
G1 X106.718 Y94.143 E0.03069
G1 X106.724 Y85.088 E0.28392
G1 X107.053 Y83.966 E0.03664
G1 X107.585 Y83.146 E0.03067
G1 X108.258 Y82.488 E0.02950
G1 X109.234 Y81.937 E0.03516
G1 X110.269 Y81.704 E0.03327
G1 X140.116 Y81.707 E0.93584
G1 X140.914 Y81.868 E0.02550
G1 X141.656 Y82.196 E0.02545
G1 X142.698 Y83.089 E0.04302
G1 X143.331 Y84.073 E0.03670
G1 X143.627 Y85.203 E0.03661
G1 X143.588 Y94.401 E0.28842
G1 X143.305 Y95.312 E0.02989
G1 X142.806 Y96.112 E0.02957
G1 X142.574 Y96.344 E0.01029
;WIPE_START
G1 F8640.000
G1 X142.806 Y96.112 E-0.07580
G1 X143.305 Y95.312 E-0.21780
G1 X143.588 Y94.401 E-0.22014
G1 X143.592 Y93.335 E-0.24627
;WIPE_END
G1 E-0.04000 F2100.000
G1 Z0.600 F10800.000
G1 X141.810 Y96.999
G1 Z0.200
G1 E0.80000 F2100.000
G1 F1200.000
G1 X141.675 Y97.081 E0.00496
G1 X141.808 Y97.201 E0.00562
G1 X141.801 Y97.700 F10800.000
G1 F1200.000
G1 X141.314 Y97.268 E0.02040
G1 X140.927 Y97.059 E0.01378
G1 X141.816 Y96.561 E0.03196
;WIPE_START
G1 F8640.000
G1 X140.927 Y97.059 E-0.23533
G1 X141.314 Y97.268 E-0.10152
G1 X141.801 Y97.700 E-0.15024
;WIPE_END
G1 E-0.31292 F2100.000
G1 Z0.600 F10800.000
G1 X142.582 Y95.759
G1 Z0.200
G1 E0.80000 F2100.000
G1 F1200.000
G1 X142.972 Y95.134 E0.02310
G1 X143.219 Y94.319 E0.02670
G1 X143.250 Y85.227 E0.28507
G1 X142.974 Y84.200 E0.03335
G1 X142.430 Y83.356 E0.03149
G1 X141.476 Y82.528 E0.03960
G1 X140.816 Y82.233 E0.02266
G1 X140.097 Y82.084 E0.02304
G1 X110.289 Y82.081 E0.93459
G1 X109.393 Y82.280 E0.02880
G1 X108.503 Y82.775 E0.03193
G1 X107.864 Y83.400 E0.02801
G1 X107.385 Y84.147 E0.02783
G1 X107.101 Y85.115 E0.03163
G1 X107.090 Y94.081 E0.28112
G1 X107.285 Y94.938 E0.02757
G1 X107.589 Y95.494 E0.01986
;WIPE_START
G1 F8640.000
G1 X107.285 Y94.938 E-0.14627
G1 X107.090 Y94.081 E-0.20306
G1 X107.092 Y92.302 E-0.41068
;WIPE_END
G1 E-0.04000 F2100.000
G1 Z0.600 F10800.000
G1 X108.331 Y96.383
G1 Z0.200
G1 E0.80000 F2100.000
G1 F1200.000
G1 X108.441 Y96.496 E0.00496
G1 X109.205 Y96.982 E0.02837
G1 X108.316 Y97.480 E0.03196
;WIPE_START
G1 F8640.000
G1 X109.205 Y96.982 E-0.23537
G1 X108.441 Y96.496 E-0.20893
G1 X108.331 Y96.383 E-0.03654
;WIPE_END
G1 E-0.31917 F2100.000
G1 Z0.600 F10800.000
G1 X107.550 Y98.281
G1 Z0.200
G1 E0.80000 F2100.000
G1 F1200.000
G1 X107.161 Y98.906 E0.02307
G1 X106.905 Y99.775 E0.02841
G1 X106.882 Y108.755 E0.28155
G1 X107.081 Y109.652 E0.02883
G1 X107.576 Y110.542 E0.03193
G1 X108.201 Y111.181 E0.02801
G1 X108.953 Y111.662 E0.02798
G1 X110.027 Y111.959 E0.03495
G1 X139.843 Y111.959 E0.93486
G1 X140.740 Y111.760 E0.02879
G1 X141.630 Y111.265 E0.03193
G1 X142.268 Y110.640 E0.02801
G1 X142.747 Y109.893 E0.02783
G1 X143.031 Y108.925 E0.03163
G1 X143.047 Y99.940 E0.28172
G1 X142.793 Y98.965 E0.03161
G1 X142.543 Y98.563 E0.01485
G1 X141.794 Y98.191 F10800.000
G1 F1200.000
G1 X141.092 Y97.574 E0.02930
G1 X140.515 Y97.312 E0.01987
G1 X139.966 Y97.189 E0.01764
G1 X139.965 Y96.887 E0.00947
G1 X140.786 Y96.703 E0.02638
G1 X141.588 Y96.263 E0.02868
G1 X141.824 Y96.033 E0.01033
;WIPE_START
G1 F8640.000
G1 X141.588 Y96.263 E-0.07610
G1 X140.786 Y96.703 E-0.21122
G1 X139.965 Y96.887 E-0.19426
G1 X139.966 Y97.189 E-0.06971
G1 X140.515 Y97.312 E-0.12991
G1 X140.825 Y97.453 E-0.07880
;WIPE_END
G1 E-0.04000 F2100.000
G1 Z0.600 F10800.000
G1 X142.592 Y95.041
G1 Z0.200
G1 E0.80000 F2100.000
G1 F1200.000
G1 X142.618 Y94.999 E0.00156
G1 X142.850 Y94.236 E0.02501
G1 X142.873 Y85.251 E0.28172
G1 X142.640 Y84.377 E0.02836
G1 X142.160 Y83.620 E0.02809
G1 X141.296 Y82.860 E0.03609
G1 X140.681 Y82.586 E0.02110
G1 X140.078 Y82.462 E0.01932
G1 X110.309 Y82.458 E0.93336
G1 X109.549 Y82.624 E0.02439
G1 X108.748 Y83.063 E0.02866
G1 X108.144 Y83.654 E0.02648
G1 X107.718 Y84.326 E0.02496
G1 X107.478 Y85.143 E0.02668
G1 X107.463 Y94.021 E0.27839
G1 X107.601 Y94.653 E0.02028
;WIPE_START
G1 F8640.000
G1 X107.463 Y94.021 E-0.14933
G1 X107.467 Y91.377 E-0.61067
;WIPE_END
G1 E-0.04000 F2100.000
G1 Z0.600 F10800.000
G1 X108.338 Y95.856
G1 Z0.200
G1 E0.80000 F2100.000
G1 F1200.000
G1 X108.693 Y96.214 E0.01581
G1 X109.334 Y96.615 E0.02370
G1 X110.186 Y96.858 E0.02778
G1 X110.178 Y97.151 E0.00919
G1 X109.346 Y97.338 E0.02672
G1 X108.544 Y97.777 E0.02868
G1 X108.308 Y98.008 E0.01034
;WIPE_START
G1 F8640.000
G1 X108.544 Y97.777 E-0.07615
G1 X109.346 Y97.338 E-0.21121
G1 X110.178 Y97.151 E-0.19678
G1 X110.186 Y96.858 E-0.06766
G1 X109.334 Y96.615 E-0.20458
G1 X109.321 Y96.606 E-0.00361
;WIPE_END
G1 E-0.04000 F2100.000
G1 Z0.600 F10800.000
G1 X107.541 Y98.999
G1 Z0.200
G1 E0.80000 F2100.000
G1 F1200.000
G1 X107.514 Y99.041 E0.00156
G1 X107.282 Y99.804 E0.02501
G1 X107.259 Y108.735 E0.28003
G1 X107.425 Y109.496 E0.02440
G1 X107.864 Y110.297 E0.02866
G1 X108.455 Y110.901 E0.02648
G1 X109.130 Y111.328 E0.02506
G1 X110.052 Y111.582 E0.02999
G1 X139.823 Y111.582 E0.93344
M73 P2 R45
M73 Q2 S45
G1 X140.583 Y111.416 E0.02438
G1 X141.385 Y110.977 E0.02866
G1 X141.988 Y110.386 E0.02648
G1 X142.414 Y109.714 E0.02496
G1 X142.654 Y108.898 E0.02668
G1 X142.670 Y99.965 E0.28008
G1 X142.530 Y99.443 E0.01694
;WIPE_START
G1 F8640.000
G1 X142.670 Y99.965 E-0.12477
G1 X142.665 Y102.716 E-0.63523
;WIPE_END
G1 E-0.04000 F2100.000
G1 Z0.600 F10800.000
G1 X108.346 Y95.319
G1 Z0.200
G1 E0.80000 F2100.000
G1 F1200.000
G1 X108.912 Y95.907 E0.02559
G1 X109.510 Y96.280 E0.02209
G1 X110.281 Y96.491 E0.02508
G1 X140.007 Y96.491 E0.93204
G1 X140.632 Y96.357 E0.02005
G1 X141.344 Y95.975 E0.02533
G1 X141.831 Y95.498 E0.02138
;WIPE_START
G1 F8640.000
G1 X141.344 Y95.975 E-0.15742
G1 X140.632 Y96.357 E-0.18655
G1 X140.007 Y96.491 E-0.14765
G1 X138.845 Y96.491 E-0.26838
;WIPE_END
G1 E-0.04000 F2100.000
G1 Z0.600 F10800.000
G1 X108.356 Y94.545
G1 Z0.200
G1 E0.80000 F2100.000
G1 F1200.000
G1 X108.646 Y95.096 E0.01949
G1 X109.166 Y95.627 E0.02333
G1 X109.639 Y95.925 E0.01752
G1 X110.308 Y96.114 E0.02179
G1 X139.988 Y96.114 E0.93060
G1 X140.481 Y96.011 E0.01580
G1 X141.100 Y95.685 E0.02193
G1 X141.632 Y95.165 E0.02333
G1 X141.840 Y94.834 E0.01227
;WIPE_START
G1 F8640.000
G1 X141.632 Y95.165 E-0.09034
G1 X141.100 Y95.685 E-0.17180
G1 X140.481 Y96.011 E-0.16151
G1 X139.988 Y96.114 E-0.11634
G1 X139.035 Y96.114 E-0.22000
;WIPE_END
G1 E-0.04000 F2100.000
G1 Z0.600 F10800.000
G1 X140.899 Y95.365
G1 Z0.200
G1 E0.80000 F2100.000
G1 F1200.000
G1 X140.330 Y95.664 E0.02014
G1 X139.970 Y95.737 E0.01152
G1 X110.336 Y95.737 E0.92916
G1 X109.772 Y95.571 E0.01842
G1 X109.418 Y95.346 E0.01318
G1 X108.966 Y94.894 E0.02004
G1 X108.667 Y94.325 E0.02014
G1 X108.594 Y93.965 E0.01152
G1 X108.594 Y85.331 E0.27072
G1 X108.760 Y84.768 E0.01842
G1 X108.985 Y84.413 E0.01318
G1 X109.437 Y83.961 E0.02004
G1 X110.006 Y83.662 E0.02014
G1 X110.366 Y83.589 E0.01152
G1 X140.014 Y83.593 E0.92959
G1 X140.373 Y83.676 E0.01157
G1 X140.739 Y83.849 E0.01268
G1 X141.344 Y84.406 E0.02580
G1 X141.576 Y84.768 E0.01347
G1 X141.742 Y85.331 E0.01841
G1 X141.742 Y93.995 E0.27165
G1 X141.576 Y94.559 E0.01842
G1 X141.351 Y94.913 E0.01318
G1 X140.941 Y95.323 E0.01816
G1 X140.654 Y95.077 F10800.000
G1 F1200.000
G1 X140.185 Y95.316 E0.01650
G1 X139.953 Y95.360 E0.00740
G1 X110.366 Y95.360 E0.92770
G1 X109.910 Y95.219 E0.01496
G1 X109.670 Y95.065 E0.00892
G1 X109.254 Y94.649 E0.01845
G1 X109.015 Y94.180 E0.01650
G1 X108.971 Y93.948 E0.00740
G1 X108.971 Y85.361 E0.26926
G1 X109.112 Y84.905 E0.01496
G1 X109.266 Y84.666 E0.00892
G1 X109.682 Y84.249 E0.01845
G1 X110.151 Y84.011 E0.01650
G1 X110.383 Y83.966 E0.00740
G1 X139.992 Y83.970 E0.92838
G1 X140.230 Y84.025 E0.00767
G1 X140.550 Y84.176 E0.01109
G1 X141.069 Y84.664 E0.02233
G1 X141.224 Y84.905 E0.00898
G1 X141.365 Y85.361 E0.01495
G1 X141.365 Y93.965 E0.26980
G1 X141.224 Y94.421 E0.01496
G1 X141.070 Y94.661 E0.00892
G1 X140.696 Y95.034 E0.01657
G1 X140.047 Y94.964 F10800.000
G1 F1200.000
G1 X139.939 Y94.983 E0.00345
G1 X110.397 Y94.983 E0.92624
G1 X110.053 Y94.870 E0.01136
G1 X109.924 Y94.785 E0.00484
G1 X109.544 Y94.406 E0.01682
G1 X109.367 Y94.042 E0.01270
G1 X109.348 Y93.934 E0.00345
G1 X109.348 Y85.392 E0.26780
G1 X109.461 Y85.048 E0.01136
G1 X109.546 Y84.919 E0.00484
G1 X109.925 Y84.539 E0.01682
G1 X110.289 Y84.362 E0.01270
G1 X110.397 Y84.343 E0.00345
G1 X139.970 Y84.347 E0.92722
G1 X140.087 Y84.374 E0.00377
G1 X140.360 Y84.504 E0.00947
G1 X140.791 Y84.920 E0.01880
G1 X140.875 Y85.048 E0.00479
G1 X140.988 Y85.392 E0.01136
G1 X140.988 Y93.934 E0.26781
G1 X140.875 Y94.278 E0.01136
G1 X140.790 Y94.407 E0.00484
G1 X140.411 Y94.787 E0.01682
G1 X140.101 Y94.938 E0.01081
G1 X139.950 Y94.599 F10800.000
G1 F1200.000
G1 X110.432 Y94.606 E0.92549
M73 P2 R44
G1 X110.178 Y94.506 E0.00856
G1 X109.835 Y94.163 E0.01522
G1 X109.725 Y93.913 E0.00856
G1 X109.725 Y85.427 E0.26605
G1 X109.825 Y85.173 E0.00856
G1 X110.168 Y84.830 E0.01522
G1 X110.418 Y84.720 E0.00856
G1 X139.950 Y84.727 E0.92594
G1 X140.168 Y84.830 E0.00757
G1 X140.511 Y85.173 E0.01522
G1 X140.611 Y85.427 E0.00856
G1 X140.611 Y93.899 E0.26561
G1 X140.511 Y94.153 E0.00856
G1 X140.168 Y94.496 E0.01522
