; generated by PrusaSlicer 2.3.0+win64 on 2021-03-04 at 11:59:43 UTC

; 

; external perimeters extrusion width = 0.45mm
; perimeters extrusion width = 0.45mm
; infill extrusion width = 0.45mm
; solid infill extrusion width = 0.45mm
; top infill extrusion width = 0.40mm
; first layer extrusion width = 0.42mm

M73 P0 R19
M73 Q0 S19
M201 X1000 Y1000 Z200 E5000 ; sets maximum accelerations, mm/sec^2
M203 X200 Y200 Z12 E120 ; sets maximum feedrates, mm/sec
M204 P1250 R1250 T1250 ; sets acceleration (P, T) and retract acceleration (R), mm/sec^2
M205 X8.00 Y8.00 Z0.40 E4.50 ; sets the jerk limits, mm/sec
M205 S0 T0 ; sets the minimum extruding and travel feed rate, mm/sec
M107
;TYPE:Custom
M862.3 P "MK3S" ; printer model check
M862.1 P0.4 ; nozzle diameter check
M115 U3.9.2 ; tell printer latest fw version
G90 ; use absolute coordinates
M83 ; extruder relative mode
M104 S215 ; set extruder temp
M140 S40 ; set bed temp
M190 S40 ; wait for bed temp
M109 S215 ; wait for extruder temp
G28 W ; home all without mesh bed level
G80 ; mesh bed leveling
G1 Y-3.0 F1000.0 ; go outside print area
G92 E0.0
G1 X60.0 E9.0 F1000.0 ; intro line
G1 X100.0 E12.5 F1000.0 ; intro line
G92 E0.0
M221 S95

; Don't change E values below. Excessive value can damage the printer.

M907 E538 ; set extruder motor current
G21 ; set units to millimeters
G90 ; use absolute coordinates
M83 ; use relative distances for extrusion
M900 K0.05 ; Filament gcode LA 1.5
M900 K30 ; Filament gcode LA 1.0
;LAYER_CHANGE
;Z:0.2
;HEIGHT:0.2
;BEFORE_LAYER_CHANGE
G92 E0.0
;0.2


G1 E-0.80000 F2100.000
G1 Z0.400 F10800.000
;AFTER_LAYER_CHANGE
;0.2
G1 X95.716 Y92.914
G1 Z0.200
G1 E0.80000 F2100.000
M204 S1000
;TYPE:Skirt
;WIDTH:0.42
G1 F1200.000
G1 X96.849 Y91.781 E0.05026
G1 X97.570 Y91.176 E0.02950
G1 X98.935 Y90.231 E0.05205
G1 X99.749 Y89.768 E0.02938
G1 X100.593 Y89.360 E0.02938
G1 X102.088 Y88.793 E0.05014
G1 X103.906 Y88.344 E0.05872
G1 X105.498 Y88.151 E0.05026
G1 X106.438 Y88.119 E0.02950
G1 X137.109 Y90.259 E0.96402
G1 X138.773 Y90.559 E0.05300
G1 X139.738 Y90.828 E0.03141
G1 X141.300 Y91.423 E0.05241
G1 X142.794 Y92.205 E0.05288
G1 X143.619 Y92.739 E0.03081
G1 X144.933 Y93.773 E0.05241
G1 X146.117 Y94.952 E0.05241
G1 X146.755 Y95.719 E0.03129
G1 X147.702 Y97.096 E0.05241
G1 X148.480 Y98.572 E0.05229
G1 X148.864 Y99.497 E0.03140
G1 X149.356 Y101.086 E0.05217
G1 X149.552 Y102.013 E0.02970
G1 X149.750 Y103.670 E0.05232
G1 X149.752 Y105.338 E0.05229
G1 X149.662 Y106.331 E0.03129
G1 X149.358 Y107.975 E0.05241
G1 X148.866 Y109.564 E0.05217
G1 X148.483 Y110.490 E0.03141
G1 X147.727 Y111.929 E0.05097
G1 X146.718 Y113.398 E0.05587
G1 X145.567 Y114.698 E0.05443
G1 X144.265 Y115.851 E0.05455
G1 X142.839 Y116.836 E0.05432
G1 X141.299 Y117.644 E0.05455
G1 X139.675 Y118.260 E0.05444
G1 X137.989 Y118.675 E0.05443
M73 Q1 S19
G1 X136.266 Y118.885 E0.05444
G1 X134.515 Y118.884 E0.05491
G1 X104.730 Y116.772 E0.93621
M73 P1 R19
G1 X103.059 Y116.471 E0.05324
G1 X102.094 Y116.202 E0.03141
G1 X100.532 Y115.607 E0.05241
G1 X99.038 Y114.825 E0.05288
G1 X98.216 Y114.293 E0.03069
G1 X96.954 Y113.305 E0.05026
G1 X95.632 Y111.984 E0.05860
G1 X94.641 Y110.719 E0.05038
G1 X94.130 Y109.934 E0.02938
G1 X93.674 Y109.120 E0.02926
G1 X93.017 Y107.661 E0.05014
G1 X92.459 Y105.873 E0.05872
G1 X92.170 Y104.297 E0.05026
G1 X92.083 Y103.364 E0.02938
G1 X92.057 Y102.431 E0.02926
G1 X92.154 Y100.827 E0.05038
G1 X92.492 Y98.989 E0.05860
G1 X92.967 Y97.462 E0.05014
G1 X93.323 Y96.595 E0.02938
G1 X93.734 Y95.758 E0.02926
G1 X94.564 Y94.386 E0.05026
G1 X95.679 Y92.962 E0.05672
; printing object Hjul.stl id:1 copy 0
;WIPE_START
G1 F8640.000
G1 X96.849 Y91.781 E-0.38388
G1 X97.570 Y91.176 E-0.21723
G1 X98.136 Y90.784 E-0.15889
;WIPE_END
G1 E-0.04000 F2100.000
G1 Z0.600 F10800.000
G1 X133.646 Y104.161
G1 Z0.200
G1 E0.80000 F2100.000
;TYPE:Perimeter
G1 F1200.000
G1 X133.762 Y103.805 E0.01174
G1 X133.949 Y103.481 E0.01174
G1 X134.200 Y103.202 E0.01174
G1 X134.503 Y102.982 E0.01174
G1 X134.845 Y102.830 E0.01174
G1 X135.211 Y102.752 E0.01174
G1 X135.586 Y102.752 E0.01174
G1 X135.952 Y102.830 E0.01174
G1 X136.294 Y102.982 E0.01174
G1 X136.597 Y103.202 E0.01174
G1 X136.848 Y103.481 E0.01174
G1 X137.035 Y103.805 E0.01174
G1 X137.151 Y104.161 E0.01174
G1 X137.190 Y104.534 E0.01174
G1 X137.151 Y104.906 E0.01174
G1 X137.035 Y105.262 E0.01174
G1 X136.848 Y105.587 E0.01174
G1 X136.597 Y105.865 E0.01174
G1 X136.294 Y106.085 E0.01174
G1 X135.952 Y106.237 E0.01174
G1 X135.586 Y106.315 E0.01174
G1 X135.211 Y106.315 E0.01174
G1 X134.845 Y106.237 E0.01174
G1 X134.503 Y106.085 E0.01174
G1 X134.200 Y105.865 E0.01174
G1 X133.949 Y105.587 E0.01174
G1 X133.762 Y105.262 E0.01174
G1 X133.646 Y104.906 E0.01174
G1 X133.607 Y104.534 E0.01174
G1 X133.640 Y104.221 E0.00986
G1 X134.015 Y104.260 F10800.000
;TYPE:External perimeter
G1 F1200.000
G1 X134.108 Y103.959 E0.00988
G1 X134.256 Y103.704 E0.00926
G1 X134.454 Y103.484 E0.00926
G1 X134.692 Y103.311 E0.00926
G1 X134.962 Y103.191 E0.00926
G1 X135.251 Y103.129 E0.00926
G1 X135.546 Y103.129 E0.00926
G1 X135.835 Y103.191 E0.00926
G1 X136.105 Y103.311 E0.00926
G1 X136.343 Y103.484 E0.00926
G1 X136.541 Y103.704 E0.00926
G1 X136.689 Y103.959 E0.00926
G1 X136.780 Y104.240 E0.00926
G1 X136.811 Y104.534 E0.00926
G1 X136.780 Y104.827 E0.00926
G1 X136.689 Y105.108 E0.00926
G1 X136.541 Y105.364 E0.00926
G1 X136.343 Y105.583 E0.00926
G1 X136.105 Y105.757 E0.00926
G1 X135.835 Y105.877 E0.00926
G1 X135.546 Y105.938 E0.00926
G1 X135.251 Y105.938 E0.00926
G1 X134.962 Y105.877 E0.00926
G1 X134.692 Y105.757 E0.00926
G1 X134.454 Y105.583 E0.00926
G1 X134.256 Y105.364 E0.00926
G1 X134.108 Y105.108 E0.00926
G1 X134.017 Y104.827 E0.00926
G1 X133.986 Y104.534 E0.00926
G1 X134.009 Y104.320 E0.00674
G1 X133.779 Y104.052 F10800.000
;WIPE_START
G1 F8640.000
G1 X134.108 Y103.959 E-0.08641
G1 X134.256 Y103.704 E-0.06817
G1 X134.454 Y103.484 E-0.06817
G1 X134.692 Y103.311 E-0.06817
G1 X134.962 Y103.191 E-0.06818
G1 X135.251 Y103.129 E-0.06817
G1 X135.546 Y103.129 E-0.06817
G1 X135.835 Y103.191 E-0.06817
G1 X136.105 Y103.311 E-0.06817
G1 X136.343 Y103.484 E-0.06817
G1 X136.517 Y103.677 E-0.06004
;WIPE_END
G1 E-0.04000 F2100.000
G1 Z0.600 F10800.000
G1 X124.319 Y102.845
G1 Z0.200
G1 E0.80000 F2100.000
;TYPE:Perimeter
G1 F1200.000
G1 X124.370 Y102.513 E0.01055
G1 X124.512 Y101.850 E0.02124
G1 X124.694 Y101.198 E0.02123
G1 X124.916 Y100.555 E0.02134
G1 X125.174 Y99.932 E0.02114
G1 X125.470 Y99.323 E0.02124
G1 X125.803 Y98.733 E0.02124
G1 X126.171 Y98.164 E0.02124
G1 X126.572 Y97.619 E0.02124
G1 X127.006 Y97.098 E0.02124
G1 X127.470 Y96.605 E0.02124
G1 X127.963 Y96.141 E0.02124
G1 X128.483 Y95.707 E0.02124
G1 X129.029 Y95.306 E0.02124
G1 X129.598 Y94.938 E0.02124
G1 X130.188 Y94.605 E0.02124
G1 X130.797 Y94.309 E0.02124
G1 X131.422 Y94.050 E0.02123
G1 X132.066 Y93.828 E0.02134
G1 X132.715 Y93.647 E0.02114
G1 X133.377 Y93.505 E0.02124
G1 X134.047 Y93.403 E0.02124
G1 X134.721 Y93.342 E0.02123
G1 X135.402 Y93.321 E0.02134
G1 X136.075 Y93.342 E0.02114
G1 X136.750 Y93.403 E0.02124
G1 X137.420 Y93.505 E0.02124
G1 X138.082 Y93.647 E0.02124
G1 X138.734 Y93.829 E0.02124
G1 X139.375 Y94.050 E0.02124
G1 X140.000 Y94.309 E0.02124
G1 X140.609 Y94.605 E0.02124
G1 X141.199 Y94.938 E0.02124
G1 X141.768 Y95.306 E0.02124
G1 X142.314 Y95.707 E0.02124
G1 X142.834 Y96.141 E0.02124
G1 X143.327 Y96.605 E0.02124
G1 X143.791 Y97.098 E0.02124
G1 X144.225 Y97.619 E0.02124
G1 X144.626 Y98.164 E0.02124
G1 X144.994 Y98.733 E0.02124
G1 X145.327 Y99.323 E0.02124
G1 X145.623 Y99.932 E0.02124
G1 X145.882 Y100.558 E0.02124
G1 X146.103 Y101.198 E0.02124
G1 X146.285 Y101.850 E0.02124
G1 X146.427 Y102.513 E0.02124
G1 X146.529 Y103.182 E0.02124
G1 X146.591 Y103.857 E0.02124
G1 X146.611 Y104.534 E0.02124
G1 X146.591 Y105.211 E0.02124
G1 X146.529 Y105.885 E0.02124
G1 X146.427 Y106.555 E0.02124
G1 X146.285 Y107.217 E0.02124
G1 X146.103 Y107.869 E0.02124
G1 X145.882 Y108.510 E0.02124
G1 X145.623 Y109.135 E0.02124
G1 X145.327 Y109.744 E0.02124
G1 X144.994 Y110.334 E0.02124
G1 X144.626 Y110.903 E0.02124
G1 X144.225 Y111.449 E0.02124
G1 X143.791 Y111.969 E0.02124
G1 X143.327 Y112.462 E0.02124
G1 X142.834 Y112.926 E0.02124
G1 X142.314 Y113.360 E0.02124
G1 X141.768 Y113.761 E0.02124
G1 X141.199 Y114.129 E0.02124
G1 X140.609 Y114.462 E0.02124
G1 X140.000 Y114.758 E0.02124
G1 X139.375 Y115.018 E0.02123
G1 X138.731 Y115.239 E0.02134
G1 X138.082 Y115.420 E0.02114
G1 X137.420 Y115.563 E0.02124
G1 X136.750 Y115.665 E0.02124
G1 X136.075 Y115.726 E0.02124
G1 X135.399 Y115.746 E0.02123
G1 X134.718 Y115.726 E0.02134
G1 X134.047 Y115.665 E0.02114
G1 X133.377 Y115.563 E0.02124
G1 X132.715 Y115.420 E0.02124
G1 X132.063 Y115.239 E0.02124
G1 X131.422 Y115.018 E0.02124
G1 X130.797 Y114.758 E0.02124
G1 X130.188 Y114.462 E0.02124
G1 X129.598 Y114.129 E0.02124
G1 X129.029 Y113.761 E0.02124
G1 X128.483 Y113.360 E0.02124
G1 X127.963 Y112.926 E0.02124
G1 X127.470 Y112.462 E0.02124
G1 X127.006 Y111.969 E0.02124
G1 X126.572 Y111.449 E0.02124
G1 X126.171 Y110.903 E0.02124
G1 X125.803 Y110.334 E0.02124
G1 X125.470 Y109.744 E0.02124
G1 X125.174 Y109.135 E0.02124
G1 X124.915 Y108.510 E0.02124
G1 X124.694 Y107.869 E0.02124
G1 X124.512 Y107.217 E0.02124
G1 X124.370 Y106.555 E0.02124
G1 X124.268 Y105.885 E0.02124
G1 X124.206 Y105.211 E0.02124
G1 X124.186 Y104.534 E0.02124
G1 X124.206 Y103.857 E0.02124
G1 X124.310 Y102.905 E0.03003
G1 X123.937 Y102.848 F10800.000
;TYPE:External perimeter
G1 F1200.000
G1 X123.999 Y102.445 E0.01279
G1 X124.145 Y101.760 E0.02195
G1 X124.333 Y101.086 E0.02195
G1 X124.563 Y100.421 E0.02205
G1 X124.830 Y99.777 E0.02185
G1 X125.136 Y99.148 E0.02195
G1 X125.480 Y98.538 E0.02195
G1 X125.860 Y97.950 E0.02195
G1 X126.275 Y97.386 E0.02195
G1 X126.723 Y96.848 E0.02195
G1 X127.203 Y96.338 E0.02195
G1 X127.713 Y95.859 E0.02195
G1 X128.251 Y95.410 E0.02195
G1 X128.815 Y94.995 E0.02195
G1 X129.403 Y94.615 E0.02195
G1 X130.012 Y94.271 E0.02195
G1 X130.642 Y93.965 E0.02195
G1 X131.289 Y93.697 E0.02195
G1 X131.954 Y93.468 E0.02205
G1 X132.625 Y93.281 E0.02185
G1 X133.309 Y93.134 E0.02195
G1 X134.001 Y93.028 E0.02195
G1 X134.699 Y92.965 E0.02195
G1 X135.402 Y92.944 E0.02205
G1 X136.098 Y92.965 E0.02185
G1 X136.795 Y93.028 E0.02195
G1 X137.488 Y93.134 E0.02195
G1 X138.172 Y93.281 E0.02195
G1 X138.847 Y93.469 E0.02195
G1 X139.508 Y93.697 E0.02195
G1 X140.155 Y93.965 E0.02195
G1 X140.785 Y94.271 E0.02195
G1 X141.394 Y94.615 E0.02195
G1 X141.982 Y94.995 E0.02195
G1 X142.546 Y95.410 E0.02195
G1 X143.084 Y95.859 E0.02195
G1 X143.594 Y96.338 E0.02195
G1 X144.074 Y96.848 E0.02195
G1 X144.522 Y97.386 E0.02195
G1 X144.937 Y97.950 E0.02195
G1 X145.317 Y98.538 E0.02195
G1 X145.661 Y99.148 E0.02195
G1 X145.967 Y99.777 E0.02195
G1 X146.235 Y100.424 E0.02195
G1 X146.464 Y101.086 E0.02195
G1 X146.652 Y101.760 E0.02195
G1 X146.798 Y102.445 E0.02195
G1 X146.904 Y103.137 E0.02195
G1 X146.967 Y103.834 E0.02195
G1 X146.988 Y104.534 E0.02195
G1 X146.967 Y105.233 E0.02195
G1 X146.904 Y105.931 E0.02195
G1 X146.798 Y106.623 E0.02195
G1 X146.652 Y107.307 E0.02195
G1 X146.464 Y107.982 E0.02195
G1 X146.235 Y108.643 E0.02195
G1 X145.967 Y109.290 E0.02195
G1 X145.661 Y109.920 E0.02195
G1 X145.317 Y110.530 E0.02195
G1 X144.937 Y111.117 E0.02195
G1 X144.522 Y111.681 E0.02195
G1 X144.074 Y112.219 E0.02195
G1 X143.594 Y112.729 E0.02195
G1 X143.084 Y113.209 E0.02195
G1 X142.546 Y113.657 E0.02195
G1 X141.982 Y114.072 E0.02195
G1 X141.394 Y114.452 E0.02195
G1 X140.785 Y114.796 E0.02195
G1 X140.155 Y115.102 E0.02195
G1 X139.508 Y115.370 E0.02195
M73 Q2 S19
G1 X138.843 Y115.600 E0.02205
G1 X138.172 Y115.787 E0.02185
G1 X137.488 Y115.934 E0.02195
G1 X136.795 Y116.039 E0.02195
G1 X136.098 Y116.102 E0.02195
G1 X135.399 Y116.124 E0.02195
G1 X134.696 Y116.102 E0.02205
G1 X134.001 Y116.039 E0.02185
G1 X133.309 Y115.934 E0.02195
M73 P2 R19
G1 X132.625 Y115.787 E0.02195
G1 X131.950 Y115.599 E0.02195
G1 X131.289 Y115.370 E0.02195
G1 X130.642 Y115.102 E0.02195
G1 X130.012 Y114.796 E0.02195
G1 X129.403 Y114.452 E0.02195
G1 X128.815 Y114.072 E0.02195
G1 X128.251 Y113.657 E0.02195
G1 X127.713 Y113.209 E0.02195
G1 X127.203 Y112.729 E0.02195
G1 X126.723 Y112.219 E0.02195
G1 X126.275 Y111.681 E0.02195
G1 X125.860 Y111.117 E0.02195
G1 X125.480 Y110.530 E0.02195
G1 X125.136 Y109.920 E0.02195
G1 X124.830 Y109.290 E0.02195
G1 X124.562 Y108.643 E0.02195
G1 X124.333 Y107.982 E0.02195
G1 X124.145 Y107.307 E0.02195
G1 X123.999 Y106.623 E0.02195
G1 X123.893 Y105.931 E0.02195
G1 X123.830 Y105.233 E0.02195
G1 X123.809 Y104.534 E0.02195
G1 X123.830 Y103.834 E0.02195
G1 X123.928 Y102.907 E0.02922
G1 X124.306 Y102.693 F10800.000
;WIPE_START
G1 F8640.000
G1 X123.999 Y102.445 E-0.10803
G1 X124.145 Y101.760 E-0.16165
G1 X124.333 Y101.086 E-0.16165
G1 X124.563 Y100.421 E-0.16240
G1 X124.830 Y99.777 E-0.16091
G1 X124.840 Y99.756 E-0.00536
;WIPE_END
G1 E-0.04000 F2100.000
G1 Z0.600 F10800.000
G1 X144.498 Y98.181
G1 Z0.200
G1 E0.80000 F2100.000
;TYPE:Solid infill
;WIDTH:0.426308
G1 F1200.000
G1 X143.052 Y96.735 E0.06520
G1 X142.646 Y96.353 E0.01776
G1 X142.139 Y95.930 E0.02105
G1 X141.607 Y95.539 E0.02105
G1 X140.829 Y95.054 E0.02922
G1 X144.878 Y99.103 E0.18253
G1 X145.076 Y99.454 E0.01287
G1 X145.425 Y100.192 E0.02601
G1 X139.740 Y94.507 E0.25629
G1 X139.274 Y94.314 E0.01608
G1 X138.863 Y94.172 E0.01386
G1 X145.760 Y101.069 E0.31092
G1 X145.989 Y101.840 E0.02565
G1 X138.092 Y93.943 E0.35603
G1 X137.395 Y93.789 E0.02275
G1 X146.143 Y102.537 E0.39441
G1 X146.243 Y103.179 E0.02069
G1 X136.754 Y93.689 E0.42780
G1 X136.155 Y93.633 E0.01918
G1 X146.299 Y103.778 E0.45736
G1 X146.322 Y104.343 E0.01803
G1 X135.590 Y93.610 E0.48387
G1 X135.052 Y93.615 E0.01713
G1 X146.318 Y104.880 E0.50789
G1 X146.290 Y105.395 E0.01642
G1 X134.538 Y93.642 E0.52984
G1 X134.043 Y93.690 E0.01585
G1 X146.243 Y105.889 E0.55001
G1 X146.171 Y106.360 E0.01517
G1 X133.572 Y93.761 E0.56800
G1 X133.118 Y93.850 E0.01474
G1 X146.083 Y106.814 E0.58447
G1 X145.981 Y107.255 E0.01442
G1 X132.678 Y93.951 E0.59977
M73 P3 R19
M73 Q3 S19
G1 X132.254 Y94.069 E0.01403
G1 X145.863 Y107.679 E0.61356
G1 X145.729 Y108.087 E0.01370
G1 X131.845 Y94.203 E0.62593
G1 X131.446 Y94.346 E0.01352
G1 X145.586 Y108.486 E0.63748
G1 X145.427 Y108.870 E0.01323
G1 X131.063 Y94.505 E0.64761
G1 X130.691 Y94.675 E0.01304
G1 X145.257 Y109.241 E0.65670
G1 X145.080 Y109.606 E0.01293
G1 X130.326 Y94.853 E0.66514
G1 X129.979 Y95.048 E0.01269
G1 X144.884 Y109.953 E0.67198
G1 X144.683 Y110.294 E0.01262
G1 X129.638 Y95.249 E0.67829
M73 P3 R18
G1 X129.309 Y95.462 E0.01250
G1 X144.470 Y110.623 E0.68354
G1 X144.247 Y110.942 E0.01241
G1 X137.432 Y104.127 E0.30725
G1 X137.295 Y103.689 E0.01461
G1 X137.078 Y103.314 E0.01383
G1 X136.787 Y102.991 E0.01383
G1 X136.436 Y102.736 E0.01383
G1 X136.040 Y102.560 E0.01383
G1 X135.817 Y102.512 E0.00728
G1 X128.990 Y95.686 E0.30776
G1 X128.678 Y95.915 E0.01236
G1 X135.232 Y102.469 E0.29547
M73 P4 R18
M73 Q4 S19
G1 X134.776 Y102.556 E0.01479
G1 X128.381 Y96.161 E0.28830
G1 X128.089 Y96.411 E0.01226
G1 X134.398 Y102.720 E0.28441
G1 X134.078 Y102.942 E0.01242
G1 X127.810 Y96.674 E0.28258
G1 X127.539 Y96.945 E0.01222
G1 X133.808 Y103.215 E0.28266
G1 X133.719 Y103.314 E0.00425
G1 X133.590 Y103.538 E0.00826
G1 X127.276 Y97.224 E0.28465
G1 X127.026 Y97.516 E0.01226
G1 X133.428 Y103.918 E0.28863
G1 X133.368 Y104.102 E0.00616
G1 X133.340 Y104.373 E0.00867
G1 X126.659 Y97.692 E0.30119
;WIPE_START
G1 F8640.000
G1 X128.986 Y100.019 E-0.76000
;WIPE_END
G1 E-0.04000 F2100.000
G1 Z0.600 F10800.000
G1 X137.303 Y104.541
M73 Q4 S18
G1 Z0.200
G1 E0.80000 F2100.000
G1 F1200.000
G1 X144.017 Y111.254 E0.30268
G1 X143.771 Y111.551 E0.01228
G1 X137.369 Y105.149 E0.28863
G1 X137.295 Y105.378 E0.00768
G1 X137.207 Y105.529 E0.00557
G1 X143.521 Y111.843 E0.28465
G1 X143.258 Y112.122 E0.01223
G1 X136.989 Y105.853 E0.28266
G1 X136.787 Y106.076 E0.00959
G1 X136.719 Y106.126 E0.00268
G1 X142.987 Y112.394 E0.28258
G1 X142.708 Y112.656 E0.01223
G1 X136.399 Y106.348 E0.28442
G1 X136.021 Y106.512 E0.01314
G1 X142.416 Y112.907 E0.28830
G1 X142.119 Y113.152 E0.01228
G1 X135.395 Y106.428 E0.30312
;WIPE_START
G1 F8640.000
