; generated by PrusaSlicer 2.3.0+win64 on 2021-03-04 at 08:04:57 UTC

; 

; external perimeters extrusion width = 0.45mm
; perimeters extrusion width = 0.45mm
; infill extrusion width = 0.45mm
; solid infill extrusion width = 0.45mm
; top infill extrusion width = 0.40mm
; first layer extrusion width = 0.42mm

M73 P0 R66
M73 Q0 S67
M201 X1000 Y1000 Z200 E5000 ; sets maximum accelerations, mm/sec^2
M203 X200 Y200 Z12 E120 ; sets maximum feedrates, mm/sec
M204 P1250 R1250 T1250 ; sets acceleration (P, T) and retract acceleration (R), mm/sec^2
M205 X8.00 Y8.00 Z0.40 E4.50 ; sets the jerk limits, mm/sec
M205 S0 T0 ; sets the minimum extruding and travel feed rate, mm/sec
M107
;TYPE:Custom
M862.3 P "MK3S" ; printer model check
M862.1 P0.4 ; nozzle diameter check
M115 U3.9.2 ; tell printer latest fw version
G90 ; use absolute coordinates
M83 ; extruder relative mode
M104 S230 ; set extruder temp
M140 S85 ; set bed temp
M190 S85 ; wait for bed temp
M109 S230 ; wait for extruder temp
G28 W ; home all without mesh bed level
G80 ; mesh bed leveling
G1 Y-3.0 F1000.0 ; go outside print area
G92 E0.0
G1 X60.0 E9.0 F1000.0 ; intro line
G1 X100.0 E12.5 F1000.0 ; intro line
G92 E0.0
M221 S95

; Don't change E values below. Excessive value can damage the printer.
M907 E430 ; set extruder motor current
G21 ; set units to millimeters
G90 ; use absolute coordinates
M83 ; use relative distances for extrusion
M900 K0.08 ; Filament gcode LA 1.5
M900 K45 ; Filament gcode LA 1.0
;LAYER_CHANGE
;Z:0.2
;HEIGHT:0.2
;BEFORE_LAYER_CHANGE
G92 E0.0
;0.2


M73 Q0 S66
G1 E-1.40000 F2100.000
G1 Z0.200 F10800.000
;AFTER_LAYER_CHANGE
;0.2
G1 Z0.400
G1 X90.210 Y93.660
G1 Z0.200
G1 E1.40000 F2100.000
M204 S1000
;TYPE:Skirt
;WIDTH:0.42
G1 F1200.000
G1 X91.521 Y92.629 E0.05229
G1 X92.362 Y92.085 E0.03141
G1 X93.829 Y91.317 E0.05193
G1 X94.713 Y90.955 E0.02994
G1 X96.307 Y90.461 E0.05232
G1 X97.943 Y90.159 E0.05217
G1 X98.929 Y90.068 E0.03105
G1 X131.220 Y89.904 E1.01247
G1 X132.155 Y89.935 E0.02934
G1 X133.800 Y90.138 E0.05197
G1 X134.719 Y90.338 E0.02950
G1 X136.246 Y90.814 E0.05014
G1 X137.954 Y91.582 E0.05872
G1 X139.326 Y92.411 E0.05026
G1 X140.088 Y92.969 E0.02962
G1 X141.330 Y94.065 E0.05193
G1 X141.975 Y94.745 E0.02938
G1 X142.572 Y95.466 E0.02938
G1 X143.485 Y96.789 E0.05038
G1 X143.974 Y97.654 E0.03117
G1 X144.632 Y99.116 E0.05026
G1 X145.191 Y100.910 E0.05893
G1 X145.478 Y102.481 E0.05006
G1 X145.566 Y103.417 E0.02950
G1 X145.569 Y105.077 E0.05205
G1 X145.488 Y106.014 E0.02950
G1 X145.343 Y106.943 E0.02946
G1 X144.942 Y108.555 E0.05209
G1 X144.634 Y109.440 E0.02938
G1 X143.976 Y110.902 E0.05026
G1 X143.006 Y112.506 E0.05881
G1 X142.016 Y113.769 E0.05029
G1 X141.335 Y114.493 E0.03117
G1 X140.135 Y115.556 E0.05026
G1 X139.379 Y116.115 E0.02950
G1 X138.591 Y116.621 E0.02934
G1 X137.129 Y117.385 E0.05173
G1 X136.246 Y117.748 E0.02994
G1 X134.652 Y118.241 E0.05232
G1 X133.012 Y118.545 E0.05229
G1 X132.018 Y118.635 E0.03129
G1 X99.746 Y118.799 E1.01188
G1 X97.968 Y118.689 E0.05586
G1 X96.295 Y118.379 E0.05336
G1 X94.578 Y117.838 E0.05642
G1 X92.367 Y116.762 E0.07710
G1 X90.931 Y115.780 E0.05455
G1 X89.582 Y114.593 E0.05634
G1 X88.430 Y113.294 E0.05443
G1 X87.441 Y111.862 E0.05455
G1 X86.639 Y110.336 E0.05408
G1 X86.276 Y109.452 E0.02994
G1 X85.783 Y107.858 E0.05232
G1 X85.480 Y106.218 E0.05229
G1 X85.389 Y105.221 E0.03141
G1 X85.392 Y103.553 E0.05229
G1 X85.590 Y101.897 E0.05229
G1 X85.800 Y100.918 E0.03141
G1 X86.299 Y99.327 E0.05229
G1 X86.981 Y97.804 E0.05229
G1 X87.442 Y96.980 E0.02962
G1 X88.387 Y95.606 E0.05229
G1 X89.030 Y94.835 E0.03149
G1 X90.167 Y93.702 E0.05032
; printing object Hjul.stl id:1 copy 0
;WIPE_START
G1 F8640.000
G1 X91.521 Y92.629 E-0.39883
G1 X92.362 Y92.085 E-0.23128
G1 X93.829 Y91.317 E-0.38243
G1 X94.713 Y90.955 E-0.22047
G1 X95.114 Y90.830 E-0.09699
;WIPE_END
G1 E-0.07000 F2100.000
G1 Z0.400 F10800.000
G1 X129.092 Y103.830
G1 Z0.200
G1 E1.40000 F2100.000
;TYPE:Perimeter
G1 F1200.000
G1 X129.232 Y103.398 E0.01423
G1 X129.459 Y103.005 E0.01423
G1 X129.763 Y102.668 E0.01423
G1 X130.130 Y102.401 E0.01423
G1 X130.545 Y102.217 E0.01423
G1 X130.988 Y102.122 E0.01423
G1 X131.442 Y102.122 E0.01423
G1 X131.886 Y102.217 E0.01423
G1 X132.301 Y102.401 E0.01423
G1 X132.668 Y102.668 E0.01423
G1 X132.971 Y103.005 E0.01423
G1 X133.198 Y103.398 E0.01423
G1 X133.338 Y103.830 E0.01423
G1 X133.386 Y104.281 E0.01423
G1 X133.338 Y104.732 E0.01423
G1 X133.198 Y105.164 E0.01423
G1 X132.971 Y105.557 E0.01423
G1 X132.668 Y105.894 E0.01423
G1 X132.301 Y106.161 E0.01423
G1 X131.886 Y106.345 E0.01423
G1 X131.442 Y106.440 E0.01423
G1 X130.988 Y106.440 E0.01423
G1 X130.545 Y106.345 E0.01423
G1 X130.130 Y106.161 E0.01423
G1 X129.763 Y105.894 E0.01423
G1 X129.459 Y105.557 E0.01423
G1 X129.232 Y105.164 E0.01423
G1 X129.092 Y104.732 E0.01423
G1 X129.045 Y104.281 E0.01423
G1 X129.086 Y103.889 E0.01235
G1 X129.461 Y103.929 F10800.000
G1 F1200.000
G1 X129.579 Y103.552 E0.01237
G1 X129.766 Y103.228 E0.01174
G1 X130.017 Y102.950 E0.01174
G1 X130.320 Y102.729 E0.01174
G1 X130.662 Y102.577 E0.01174
G1 X131.028 Y102.499 E0.01174
G1 X131.403 Y102.499 E0.01174
G1 X131.769 Y102.577 E0.01174
G1 X132.111 Y102.729 E0.01174
G1 X132.414 Y102.950 E0.01174
G1 X132.665 Y103.228 E0.01174
G1 X132.852 Y103.552 E0.01174
G1 X132.968 Y103.908 E0.01174
G1 X133.007 Y104.281 E0.01174
G1 X132.968 Y104.653 E0.01174
G1 X132.852 Y105.009 E0.01174
G1 X132.665 Y105.334 E0.01174
G1 X132.414 Y105.612 E0.01174
G1 X132.111 Y105.832 E0.01174
G1 X131.769 Y105.985 E0.01174
G1 X131.403 Y106.062 E0.01174
G1 X131.028 Y106.062 E0.01174
G1 X130.662 Y105.985 E0.01174
G1 X130.320 Y105.832 E0.01174
G1 X130.017 Y105.612 E0.01174
G1 X129.766 Y105.334 E0.01174
G1 X129.579 Y105.009 E0.01174
G1 X129.463 Y104.653 E0.01174
G1 X129.424 Y104.281 E0.01174
G1 X129.455 Y103.988 E0.00922
G1 X129.834 Y103.987 F10800.000
;TYPE:External perimeter
G1 F1200.000
G1 X129.925 Y103.706 E0.00926
G1 X130.073 Y103.451 E0.00926
G1 X130.270 Y103.231 E0.00926
G1 X130.509 Y103.058 E0.00926
G1 X130.779 Y102.938 E0.00926
G1 X131.068 Y102.876 E0.00926
G1 X131.363 Y102.876 E0.00926
G1 X131.652 Y102.938 E0.00926
G1 X131.921 Y103.058 E0.00926
G1 X132.160 Y103.231 E0.00926
G1 X132.358 Y103.451 E0.00926
G1 X132.506 Y103.706 E0.00926
G1 X132.597 Y103.987 E0.00926
G1 X132.628 Y104.281 E0.00926
G1 X132.597 Y104.574 E0.00926
G1 X132.506 Y104.855 E0.00926
G1 X132.358 Y105.111 E0.00926
G1 X132.160 Y105.330 E0.00926
G1 X131.921 Y105.504 E0.00926
G1 X131.652 Y105.624 E0.00926
G1 X131.363 Y105.685 E0.00926
G1 X131.068 Y105.685 E0.00926
G1 X130.779 Y105.624 E0.00926
G1 X130.509 Y105.504 E0.00926
G1 X130.270 Y105.330 E0.00926
G1 X130.073 Y105.111 E0.00926
G1 X129.925 Y104.855 E0.00926
G1 X129.834 Y104.574 E0.00926
G1 X129.803 Y104.281 E0.00926
G1 X129.828 Y104.047 E0.00738
G1 X129.615 Y103.790 F10800.000
;WIPE_START
G1 F8640.000
G1 X129.925 Y103.706 E-0.08178
G1 X130.073 Y103.451 E-0.06817
G1 X130.270 Y103.231 E-0.06817
G1 X130.509 Y103.058 E-0.06817
G1 X130.779 Y102.938 E-0.06818
G1 X131.068 Y102.876 E-0.06817
G1 X131.363 Y102.876 E-0.06817
G1 X131.652 Y102.938 E-0.06817
G1 X131.921 Y103.058 E-0.06817
G1 X132.160 Y103.231 E-0.06817
G1 X132.358 Y103.451 E-0.06817
G1 X132.506 Y103.706 E-0.06817
G1 X132.597 Y103.987 E-0.06817
G1 X132.628 Y104.281 E-0.06817
G1 X132.597 Y104.574 E-0.06817
G1 X132.506 Y104.855 E-0.06817
G1 X132.358 Y105.111 E-0.06817
G1 X132.160 Y105.330 E-0.06817
G1 X131.921 Y105.504 E-0.06817
G1 X131.838 Y105.541 E-0.02112
;WIPE_END
G1 E-0.07000 F2100.000
G1 Z0.400 F10800.000
G1 X120.512 Y102.629
G1 Z0.200
G1 E1.40000 F2100.000
;TYPE:Perimeter
G1 F1200.000
G1 X120.558 Y102.328 E0.00955
G1 X120.695 Y101.688 E0.02052
G1 X120.871 Y101.057 E0.02052
G1 X121.085 Y100.436 E0.02062
G1 X121.335 Y99.834 E0.02042
G1 X121.621 Y99.245 E0.02052
G1 X121.943 Y98.675 E0.02052
G1 X122.298 Y98.126 E0.02052
G1 X122.686 Y97.599 E0.02052
G1 X123.105 Y97.096 E0.02052
G1 X123.554 Y96.619 E0.02052
G1 X124.030 Y96.171 E0.02052
G1 X124.533 Y95.751 E0.02052
G1 X125.060 Y95.364 E0.02052
G1 X125.610 Y95.008 E0.02052
G1 X126.180 Y94.687 E0.02052
G1 X126.768 Y94.400 E0.02052
G1 X127.373 Y94.150 E0.02052
G1 X127.995 Y93.935 E0.02062
G1 X128.622 Y93.760 E0.02042
G1 X129.262 Y93.623 E0.02052
G1 X129.909 Y93.525 E0.02052
G1 X130.561 Y93.465 E0.02052
G1 X131.218 Y93.446 E0.02062
G1 X131.870 Y93.465 E0.02042
G1 X132.521 Y93.525 E0.02052
G1 X133.168 Y93.623 E0.02052
G1 X133.808 Y93.760 E0.02052
G1 X134.439 Y93.936 E0.02052
G1 X135.058 Y94.150 E0.02052
G1 X135.662 Y94.400 E0.02052
G1 X136.251 Y94.687 E0.02052
G1 X136.821 Y95.008 E0.02052
G1 X137.371 Y95.364 E0.02052
G1 X137.898 Y95.751 E0.02052
G1 X138.401 Y96.171 E0.02052
G1 X138.877 Y96.619 E0.02052
G1 X139.326 Y97.096 E0.02052
G1 X139.745 Y97.599 E0.02052
G1 X140.133 Y98.126 E0.02052
G1 X140.488 Y98.675 E0.02052
G1 X140.810 Y99.245 E0.02052
G1 X141.096 Y99.834 E0.02052
G1 X141.347 Y100.439 E0.02052
G1 X141.560 Y101.057 E0.02052
G1 X141.736 Y101.688 E0.02052
G1 X141.873 Y102.328 E0.02052
G1 X141.972 Y102.975 E0.02052
G1 X142.031 Y103.627 E0.02052
G1 X142.051 Y104.281 E0.02052
G1 X142.031 Y104.935 E0.02052
G1 X141.972 Y105.587 E0.02052
G1 X141.873 Y106.234 E0.02052
G1 X141.736 Y106.874 E0.02052
G1 X141.560 Y107.504 E0.02052
G1 X141.347 Y108.123 E0.02052
G1 X141.096 Y108.728 E0.02052
G1 X140.810 Y109.316 E0.02052
G1 X140.488 Y109.886 E0.02052
G1 X140.133 Y110.436 E0.02052
G1 X139.745 Y110.963 E0.02052
G1 X139.326 Y111.466 E0.02052
G1 X138.877 Y111.943 E0.02052
G1 X138.401 Y112.391 E0.02052
G1 X137.898 Y112.810 E0.02052
G1 X137.371 Y113.198 E0.02052
G1 X136.821 Y113.554 E0.02052
G1 X136.251 Y113.875 E0.02052
G1 X135.662 Y114.162 E0.02052
G1 X135.058 Y114.412 E0.02052
G1 X134.436 Y114.626 E0.02062
G1 X133.808 Y114.801 E0.02042
G1 X133.168 Y114.939 E0.02052
G1 X132.521 Y115.037 E0.02052
G1 X131.870 Y115.096 E0.02052
G1 X131.215 Y115.116 E0.02052
G1 X130.558 Y115.096 E0.02062
G1 X129.909 Y115.037 E0.02042
G1 X129.262 Y114.939 E0.02052
G1 X128.622 Y114.801 E0.02052
G1 X127.992 Y114.626 E0.02052
G1 X127.373 Y114.412 E0.02052
G1 X126.768 Y114.162 E0.02052
G1 X126.180 Y113.875 E0.02052
G1 X125.610 Y113.554 E0.02052
G1 X125.060 Y113.198 E0.02052
G1 X124.533 Y112.810 E0.02052
G1 X124.030 Y112.391 E0.02052
G1 X123.554 Y111.943 E0.02052
G1 X123.105 Y111.466 E0.02052
G1 X122.686 Y110.963 E0.02052
G1 X122.298 Y110.436 E0.02052
G1 X121.943 Y109.886 E0.02052
G1 X121.621 Y109.316 E0.02052
G1 X121.335 Y108.728 E0.02052
G1 X121.084 Y108.123 E0.02052
G1 X120.871 Y107.504 E0.02052
G1 X120.695 Y106.874 E0.02052
G1 X120.558 Y106.234 E0.02052
G1 X120.459 Y105.587 E0.02052
G1 X120.400 Y104.935 E0.02052
G1 X120.380 Y104.281 E0.02052
G1 X120.400 Y103.627 E0.02052
G1 X120.503 Y102.688 E0.02960
G1 X120.130 Y102.632 F10800.000
G1 F1200.000
G1 X120.186 Y102.260 E0.01179
G1 X120.329 Y101.598 E0.02124
G1 X120.510 Y100.945 E0.02123
G1 X120.733 Y100.302 E0.02134
G1 X120.991 Y99.679 E0.02114
G1 X121.287 Y99.070 E0.02124
G1 X121.620 Y98.480 E0.02124
G1 X121.988 Y97.911 E0.02124
G1 X122.389 Y97.366 E0.02124
G1 X122.823 Y96.846 E0.02124
G1 X123.287 Y96.352 E0.02124
G1 X123.780 Y95.888 E0.02124
G1 X124.300 Y95.455 E0.02124
G1 X124.846 Y95.053 E0.02124
G1 X125.415 Y94.685 E0.02124
G1 X126.005 Y94.353 E0.02124
G1 X126.614 Y94.056 E0.02124
G1 X127.239 Y93.797 E0.02123
G1 X127.883 Y93.575 E0.02134
G1 X128.532 Y93.394 E0.02114
G1 X129.194 Y93.252 E0.02124
G1 X129.864 Y93.150 E0.02124
G1 X130.538 Y93.089 E0.02123
G1 X131.219 Y93.068 E0.02134
G1 X131.892 Y93.089 E0.02114
G1 X132.567 Y93.150 E0.02124
G1 X133.236 Y93.252 E0.02124
G1 X133.899 Y93.394 E0.02124
G1 X134.551 Y93.576 E0.02124
G1 X135.191 Y93.797 E0.02124
G1 X135.817 Y94.056 E0.02124
G1 X136.426 Y94.353 E0.02124
G1 X137.016 Y94.685 E0.02124
G1 X137.585 Y95.053 E0.02124
G1 X138.130 Y95.455 E0.02124
G1 X138.651 Y95.888 E0.02124
G1 X139.144 Y96.352 E0.02124
G1 X139.608 Y96.846 E0.02124
G1 X140.042 Y97.366 E0.02124
G1 X140.443 Y97.911 E0.02124
G1 X140.811 Y98.480 E0.02124
G1 X141.144 Y99.070 E0.02124
G1 X141.440 Y99.679 E0.02124
G1 X141.699 Y100.305 E0.02124
G1 X141.920 Y100.945 E0.02124
G1 X142.102 Y101.598 E0.02124
G1 X142.244 Y102.260 E0.02124
G1 X142.346 Y102.929 E0.02124
G1 X142.407 Y103.604 E0.02124
G1 X142.428 Y104.281 E0.02124
G1 X142.407 Y104.958 E0.02124
G1 X142.346 Y105.632 E0.02124
G1 X142.244 Y106.302 E0.02124
G1 X142.102 Y106.964 E0.02124
G1 X141.920 Y107.617 E0.02124
G1 X141.699 Y108.257 E0.02124
G1 X141.440 Y108.883 E0.02124
G1 X141.144 Y109.492 E0.02124
G1 X140.811 Y110.082 E0.02124
G1 X140.443 Y110.650 E0.02124
G1 X140.042 Y111.196 E0.02124
G1 X139.608 Y111.716 E0.02124
G1 X139.144 Y112.209 E0.02124
G1 X138.651 Y112.674 E0.02124
G1 X138.130 Y113.107 E0.02124
G1 X137.585 Y113.509 E0.02124
G1 X137.016 Y113.876 E0.02124
G1 X136.426 Y114.209 E0.02124
G1 X135.817 Y114.506 E0.02124
G1 X135.191 Y114.765 E0.02123
G1 X134.548 Y114.987 E0.02134
G1 X133.899 Y115.168 E0.02114
G1 X133.236 Y115.310 E0.02124
G1 X132.567 Y115.412 E0.02124
G1 X131.892 Y115.473 E0.02124
G1 X131.215 Y115.493 E0.02123
G1 X130.535 Y115.473 E0.02134
G1 X129.864 Y115.412 E0.02114
G1 X129.194 Y115.310 E0.02124
G1 X128.532 Y115.168 E0.02124
G1 X127.880 Y114.986 E0.02124
G1 X127.239 Y114.765 E0.02124
G1 X126.614 Y114.506 E0.02124
G1 X126.005 Y114.209 E0.02124
G1 X125.415 Y113.876 E0.02124
G1 X124.846 Y113.509 E0.02124
G1 X124.300 Y113.107 E0.02124
G1 X123.780 Y112.674 E0.02124
M73 P0 R65
G1 X123.287 Y112.209 E0.02124
G1 X122.823 Y111.716 E0.02124
G1 X122.389 Y111.196 E0.02124
G1 X121.988 Y110.650 E0.02124
G1 X121.620 Y110.082 E0.02124
G1 X121.287 Y109.492 E0.02124
G1 X120.991 Y108.883 E0.02124
G1 X120.731 Y108.257 E0.02124
G1 X120.510 Y107.617 E0.02124
G1 X120.329 Y106.964 E0.02124
G1 X120.186 Y106.302 E0.02124
G1 X120.085 Y105.632 E0.02124
G1 X120.023 Y104.958 E0.02124
G1 X120.003 Y104.281 E0.02124
G1 X120.023 Y103.604 E0.02124
G1 X120.121 Y102.691 E0.02879
G1 X119.748 Y102.634 F10800.000
;TYPE:External perimeter
G1 F1200.000
G1 X119.815 Y102.192 E0.01403
G1 X119.962 Y101.507 E0.02195
G1 X120.150 Y100.833 E0.02195
G1 X120.380 Y100.168 E0.02205
G1 X120.647 Y99.524 E0.02185
G1 X120.953 Y98.895 E0.02195
G1 X121.297 Y98.285 E0.02195
G1 X121.677 Y97.697 E0.02195
G1 X122.092 Y97.133 E0.02195
G1 X122.540 Y96.595 E0.02195
G1 X123.020 Y96.086 E0.02195
G1 X123.530 Y95.606 E0.02195
G1 X124.068 Y95.158 E0.02195
G1 X124.632 Y94.743 E0.02195
G1 X125.220 Y94.363 E0.02195
G1 X125.829 Y94.019 E0.02195
G1 X126.459 Y93.712 E0.02195
G1 X127.106 Y93.444 E0.02195
G1 X127.770 Y93.215 E0.02205
G1 X128.442 Y93.028 E0.02185
G1 X129.126 Y92.881 E0.02195
G1 X129.818 Y92.776 E0.02195
G1 X130.516 Y92.712 E0.02195
G1 X131.219 Y92.691 E0.02205
G1 X131.915 Y92.712 E0.02185
G1 X132.612 Y92.776 E0.02195
G1 X133.304 Y92.881 E0.02195
G1 X133.989 Y93.028 E0.02195
G1 X134.663 Y93.216 E0.02195
G1 X135.325 Y93.444 E0.02195
G1 X135.972 Y93.712 E0.02195
G1 X136.601 Y94.019 E0.02195
G1 X137.211 Y94.363 E0.02195
G1 X137.799 Y94.743 E0.02195
G1 X138.363 Y95.158 E0.02195
G1 X138.901 Y95.606 E0.02195
G1 X139.411 Y96.086 E0.02195
G1 X139.890 Y96.595 E0.02195
G1 X140.339 Y97.133 E0.02195
G1 X140.754 Y97.697 E0.02195
G1 X141.134 Y98.285 E0.02195
G1 X141.478 Y98.895 E0.02195
G1 X141.784 Y99.524 E0.02195
G1 X142.052 Y100.171 E0.02195
G1 X142.280 Y100.833 E0.02195
G1 X142.468 Y101.507 E0.02195
G1 X142.615 Y102.192 E0.02195
G1 X142.721 Y102.884 E0.02195
G1 X142.784 Y103.581 E0.02195
G1 X142.805 Y104.281 E0.02195
G1 X142.784 Y104.981 E0.02195
G1 X142.721 Y105.678 E0.02195
G1 X142.615 Y106.370 E0.02195
G1 X142.468 Y107.054 E0.02195
G1 X142.280 Y107.729 E0.02195
G1 X142.052 Y108.391 E0.02195
G1 X141.784 Y109.037 E0.02195
G1 X141.478 Y109.667 E0.02195
G1 X141.134 Y110.277 E0.02195
G1 X140.754 Y110.865 E0.02195
G1 X140.339 Y111.429 E0.02195
G1 X139.890 Y111.966 E0.02195
G1 X139.411 Y112.476 E0.02195
G1 X138.901 Y112.956 E0.02195
G1 X138.363 Y113.404 E0.02195
G1 X137.799 Y113.819 E0.02195
G1 X137.211 Y114.199 E0.02195
G1 X136.601 Y114.543 E0.02195
G1 X135.972 Y114.850 E0.02195
G1 X135.325 Y115.118 E0.02195
G1 X134.660 Y115.347 E0.02205
G1 X133.989 Y115.534 E0.02185
