; generated by PrusaSlicer 2.3.0+win64 on 2021-03-04 at 10:22:11 UTC

; 

; external perimeters extrusion width = 0.45mm
; perimeters extrusion width = 0.45mm
; infill extrusion width = 0.45mm
; solid infill extrusion width = 0.45mm
; top infill extrusion width = 0.40mm
; first layer extrusion width = 0.42mm

M73 P0 R65
M73 Q0 S66
M201 X1000 Y1000 Z200 E5000 ; sets maximum accelerations, mm/sec^2
M203 X200 Y200 Z12 E120 ; sets maximum feedrates, mm/sec
M204 P1250 R1250 T1250 ; sets acceleration (P, T) and retract acceleration (R), mm/sec^2
M205 X8.00 Y8.00 Z0.40 E4.50 ; sets the jerk limits, mm/sec
M205 S0 T0 ; sets the minimum extruding and travel feed rate, mm/sec
M107
;TYPE:Custom
M862.3 P "MK3S" ; printer model check
M862.1 P0.4 ; nozzle diameter check
M115 U3.9.2 ; tell printer latest fw version
G90 ; use absolute coordinates
M83 ; extruder relative mode
M104 S215 ; set extruder temp
M140 S60 ; set bed temp
M190 S60 ; wait for bed temp
M109 S215 ; wait for extruder temp
G28 W ; home all without mesh bed level
G80 ; mesh bed leveling
G1 Y-3.0 F1000.0 ; go outside print area
G92 E0.0
G1 X60.0 E9.0 F1000.0 ; intro line
G1 X100.0 E12.5 F1000.0 ; intro line
G92 E0.0
M221 S95

; Don't change E values below. Excessive value can damage the printer.
M907 E430 ; set extruder motor current
G21 ; set units to millimeters
G90 ; use absolute coordinates
M83 ; use relative distances for extrusion
M900 K0.05 ; Filament gcode LA 1.5
M900 K30 ; Filament gcode LA 1.0
;LAYER_CHANGE
;Z:0.2
;HEIGHT:0.2
;BEFORE_LAYER_CHANGE
G92 E0.0
;0.2


G1 E-0.80000 F2100.000
G1 Z0.400 F10800.000
;AFTER_LAYER_CHANGE
;0.2
G1 X110.315 Y93.715
G1 Z0.200
G1 E0.80000 F2100.000
M204 S1000
;TYPE:Skirt
;WIDTH:0.42
G1 F1200.000
G1 X110.959 Y93.034 E0.02938
G1 X112.162 Y91.969 E0.05038
G1 X112.963 Y91.380 E0.03117
G1 X114.334 Y90.550 E0.05026
M73 Q0 S65
G1 X116.042 Y89.781 E0.05872
G1 X117.572 Y89.304 E0.05026
G1 X118.491 Y89.104 E0.02950
G1 X120.139 Y88.901 E0.05205
G1 X121.083 Y88.869 E0.02963
G1 X154.311 Y88.959 E1.04182
G1 X155.301 Y89.049 E0.03117
G1 X156.937 Y89.352 E0.05217
G1 X157.849 Y89.609 E0.02970
G1 X159.397 Y90.199 E0.05197
G1 X160.247 Y90.617 E0.02970
G1 X161.674 Y91.483 E0.05232
G1 X162.988 Y92.509 E0.05229
G1 X163.719 Y93.198 E0.03149
G1 X164.821 Y94.446 E0.05220
G1 X165.773 Y95.820 E0.05241
G1 X166.263 Y96.689 E0.03129
G1 X166.946 Y98.215 E0.05241
G1 X167.444 Y99.802 E0.05217
G1 X167.646 Y100.729 E0.02974
G1 X167.849 Y102.380 E0.05217
G1 X167.879 Y103.384 E0.03149
G1 X167.775 Y105.046 E0.05220
G1 X167.478 Y106.687 E0.05229
G1 X167.209 Y107.652 E0.03141
G1 X166.616 Y109.207 E0.05217
G1 X165.806 Y110.751 E0.05467
G1 X164.818 Y112.183 E0.05456
G1 X163.663 Y113.484 E0.05455
G1 X162.315 Y114.672 E0.05634
G1 X160.247 Y116.008 E0.07719
G1 X158.664 Y116.730 E0.05455
G1 X156.954 Y117.269 E0.05622
G1 X155.277 Y117.579 E0.05348
G1 X153.506 Y117.690 E0.05563
G1 X120.282 Y117.600 E1.04172
G1 X119.281 Y117.510 E0.03153
G1 X117.645 Y117.207 E0.05217
G1 X116.733 Y116.950 E0.02970
G1 X115.184 Y116.359 E0.05197
G1 X114.340 Y115.945 E0.02950
G1 X112.965 Y115.114 E0.05038
G1 X111.492 Y113.959 E0.05869
G1 X110.363 Y112.830 E0.05006
G1 X109.759 Y112.109 E0.02950
G1 X108.813 Y110.745 E0.05205
G1 X108.346 Y109.924 E0.02962
G1 X107.662 Y108.411 E0.05205
G1 X107.353 Y107.526 E0.02938
G1 X107.105 Y106.623 E0.02938
G1 X106.815 Y105.043 E0.05038
G1 X106.725 Y104.053 E0.03117
G1 X106.724 Y102.450 E0.05026
G1 X106.951 Y100.584 E0.05892
G1 X107.333 Y99.034 E0.05006
G1 X107.637 Y98.144 E0.02950
G1 X108.316 Y96.629 E0.05205
G1 X108.775 Y95.808 E0.02950
G1 X109.288 Y95.021 E0.02946
G1 X110.278 Y93.762 E0.05020
; printing object Hjul.stl id:1 copy 0
;WIPE_START
G1 F8640.000
G1 X110.959 Y93.034 E-0.23014
G1 X112.162 Y91.969 E-0.37101
G1 X112.716 Y91.561 E-0.15885
;WIPE_END
G1 E-0.04000 F2100.000
G1 Z0.600 F10800.000
G1 X151.380 Y102.861
G1 Z0.200
G1 E0.80000 F2100.000
;TYPE:Perimeter
G1 F1200.000
G1 X151.520 Y102.430 E0.01423
G1 X151.747 Y102.037 E0.01423
G1 X152.051 Y101.699 E0.01423
G1 X152.418 Y101.433 E0.01423
G1 X152.832 Y101.248 E0.01423
G1 X153.276 Y101.154 E0.01423
G1 X153.730 Y101.154 E0.01423
G1 X154.174 Y101.248 E0.01423
G1 X154.588 Y101.433 E0.01423
G1 X154.955 Y101.699 E0.01423
G1 X155.259 Y102.037 E0.01423
G1 X155.486 Y102.430 E0.01423
G1 X155.626 Y102.861 E0.01423
G1 X155.674 Y103.313 E0.01423
G1 X155.626 Y103.764 E0.01423
G1 X155.486 Y104.195 E0.01423
G1 X155.259 Y104.588 E0.01423
G1 X154.955 Y104.926 E0.01423
G1 X154.588 Y105.192 E0.01423
G1 X154.174 Y105.377 E0.01423
G1 X153.730 Y105.471 E0.01423
G1 X153.276 Y105.471 E0.01423
G1 X152.832 Y105.377 E0.01423
G1 X152.418 Y105.192 E0.01423
G1 X152.051 Y104.926 E0.01423
G1 X151.747 Y104.588 E0.01423
G1 X151.520 Y104.195 E0.01423
G1 X151.380 Y103.764 E0.01423
G1 X151.332 Y103.313 E0.01423
G1 X151.374 Y102.921 E0.01235
G1 X151.749 Y102.960 F10800.000
G1 F1200.000
G1 X151.867 Y102.584 E0.01237
G1 X152.054 Y102.260 E0.01174
G1 X152.304 Y101.981 E0.01174
G1 X152.607 Y101.761 E0.01174
G1 X152.950 Y101.609 E0.01174
G1 X153.316 Y101.531 E0.01174
G1 X153.690 Y101.531 E0.01174
G1 X154.057 Y101.609 E0.01174
G1 X154.399 Y101.761 E0.01174
G1 X154.702 Y101.981 E0.01174
G1 X154.952 Y102.260 E0.01174
G1 X155.140 Y102.584 E0.01174
G1 X155.255 Y102.940 E0.01174
G1 X155.294 Y103.313 E0.01174
G1 X155.255 Y103.685 E0.01174
G1 X155.140 Y104.041 E0.01174
G1 X154.952 Y104.365 E0.01174
G1 X154.702 Y104.644 E0.01174
G1 X154.399 Y104.864 E0.01174
G1 X154.057 Y105.016 E0.01174
G1 X153.690 Y105.094 E0.01174
G1 X153.316 Y105.094 E0.01174
G1 X152.949 Y105.016 E0.01174
G1 X152.607 Y104.864 E0.01174
G1 X152.304 Y104.644 E0.01174
G1 X152.054 Y104.366 E0.01174
G1 X151.867 Y104.041 E0.01174
G1 X151.751 Y103.685 E0.01174
G1 X151.712 Y103.313 E0.01174
G1 X151.742 Y103.020 E0.00922
G1 X152.122 Y103.019 F10800.000
;TYPE:External perimeter
G1 F1200.000
G1 X152.213 Y102.738 E0.00926
G1 X152.361 Y102.482 E0.00926
G1 X152.558 Y102.263 E0.00926
G1 X152.797 Y102.089 E0.00926
G1 X153.067 Y101.969 E0.00926
G1 X153.355 Y101.908 E0.00926
G1 X153.651 Y101.908 E0.00926
G1 X153.939 Y101.969 E0.00926
G1 X154.209 Y102.089 E0.00926
G1 X154.448 Y102.263 E0.00926
G1 X154.646 Y102.482 E0.00926
G1 X154.793 Y102.738 E0.00926
G1 X154.884 Y103.019 E0.00926
G1 X154.915 Y103.313 E0.00926
G1 X154.884 Y103.606 E0.00926
G1 X154.793 Y103.887 E0.00926
G1 X154.646 Y104.143 E0.00926
G1 X154.448 Y104.362 E0.00926
G1 X154.209 Y104.536 E0.00926
G1 X153.939 Y104.656 E0.00926
G1 X153.651 Y104.717 E0.00926
G1 X153.355 Y104.717 E0.00926
G1 X153.067 Y104.656 E0.00926
G1 X152.797 Y104.536 E0.00926
G1 X152.558 Y104.362 E0.00926
G1 X152.361 Y104.143 E0.00926
G1 X152.213 Y103.887 E0.00926
G1 X152.122 Y103.606 E0.00926
G1 X152.091 Y103.313 E0.00926
G1 X152.115 Y103.079 E0.00738
G1 X151.902 Y102.821 F10800.000
;WIPE_START
G1 F8640.000
G1 X152.213 Y102.738 E-0.08178
G1 X152.361 Y102.482 E-0.06817
G1 X152.558 Y102.263 E-0.06817
G1 X152.797 Y102.089 E-0.06817
G1 X153.067 Y101.969 E-0.06818
G1 X153.355 Y101.908 E-0.06817
G1 X153.651 Y101.908 E-0.06817
G1 X153.939 Y101.969 E-0.06817
G1 X154.209 Y102.089 E-0.06817
G1 X154.448 Y102.263 E-0.06817
G1 X154.635 Y102.471 E-0.06467
;WIPE_END
G1 E-0.04000 F2100.000
G1 Z0.600 F10800.000
G1 X142.799 Y101.661
G1 Z0.200
G1 E0.80000 F2100.000
;TYPE:Perimeter
G1 F1200.000
G1 X142.845 Y101.359 E0.00955
G1 X142.983 Y100.719 E0.02052
G1 X143.158 Y100.089 E0.02052
G1 X143.373 Y99.467 E0.02062
G1 X143.622 Y98.866 E0.02042
G1 X143.909 Y98.277 E0.02052
G1 X144.230 Y97.707 E0.02052
G1 X144.586 Y97.157 E0.02052
G1 X144.974 Y96.630 E0.02052
G1 X145.393 Y96.127 E0.02052
G1 X145.841 Y95.651 E0.02052
G1 X146.318 Y95.202 E0.02052
G1 X146.821 Y94.783 E0.02052
G1 X147.348 Y94.395 E0.02052
G1 X147.898 Y94.040 E0.02052
G1 X148.468 Y93.718 E0.02052
G1 X149.056 Y93.432 E0.02052
G1 X149.661 Y93.181 E0.02052
G1 X150.283 Y92.967 E0.02062
G1 X150.910 Y92.792 E0.02042
G1 X151.550 Y92.655 E0.02052
G1 X152.197 Y92.556 E0.02052
G1 X152.849 Y92.497 E0.02052
G1 X153.506 Y92.477 E0.02062
G1 X154.157 Y92.497 E0.02042
G1 X154.809 Y92.556 E0.02052
G1 X155.456 Y92.655 E0.02052
G1 X156.096 Y92.792 E0.02052
G1 X156.727 Y92.968 E0.02052
G1 X157.345 Y93.181 E0.02052
G1 X157.950 Y93.432 E0.02052
G1 X158.538 Y93.718 E0.02052
G1 X159.109 Y94.040 E0.02052
G1 X159.658 Y94.395 E0.02052
G1 X160.185 Y94.783 E0.02052
G1 X160.688 Y95.202 E0.02052
G1 X161.165 Y95.651 E0.02052
G1 X161.613 Y96.127 E0.02052
G1 X162.032 Y96.630 E0.02052
G1 X162.420 Y97.157 E0.02052
G1 X162.776 Y97.707 E0.02052
G1 X163.097 Y98.277 E0.02052
G1 X163.384 Y98.866 E0.02052
G1 X163.634 Y99.470 E0.02052
G1 X163.848 Y100.089 E0.02052
G1 X164.024 Y100.719 E0.02052
G1 X164.161 Y101.359 E0.02052
G1 X164.259 Y102.006 E0.02052
G1 X164.319 Y102.658 E0.02052
G1 X164.338 Y103.313 E0.02052
G1 X164.319 Y103.967 E0.02052
G1 X164.259 Y104.619 E0.02052
G1 X164.161 Y105.266 E0.02052
G1 X164.024 Y105.906 E0.02052
G1 X163.848 Y106.536 E0.02052
G1 X163.634 Y107.155 E0.02052
G1 X163.384 Y107.759 E0.02052
G1 X163.097 Y108.348 E0.02052
G1 X162.776 Y108.918 E0.02052
G1 X162.420 Y109.468 E0.02052
G1 X162.032 Y109.995 E0.02052
G1 X161.613 Y110.498 E0.02052
G1 X161.165 Y110.974 E0.02052
G1 X160.688 Y111.423 E0.02052
G1 X160.185 Y111.842 E0.02052
G1 X159.658 Y112.230 E0.02052
G1 X159.109 Y112.585 E0.02052
G1 X158.538 Y112.907 E0.02052
G1 X157.950 Y113.193 E0.02052
G1 X157.345 Y113.444 E0.02052
G1 X156.724 Y113.658 E0.02062
G1 X156.096 Y113.833 E0.02042
G1 X155.456 Y113.970 E0.02052
G1 X154.809 Y114.069 E0.02052
G1 X154.157 Y114.128 E0.02052
G1 X153.503 Y114.148 E0.02052
G1 X152.846 Y114.128 E0.02062
G1 X152.197 Y114.069 E0.02042
G1 X151.550 Y113.970 E0.02052
G1 X150.910 Y113.833 E0.02052
G1 X150.280 Y113.657 E0.02052
G1 X149.661 Y113.444 E0.02052
G1 X149.056 Y113.193 E0.02052
G1 X148.468 Y112.907 E0.02052
G1 X147.898 Y112.585 E0.02052
G1 X147.348 Y112.230 E0.02052
G1 X146.821 Y111.842 E0.02052
G1 X146.318 Y111.423 E0.02052
G1 X145.841 Y110.974 E0.02052
G1 X145.393 Y110.498 E0.02052
G1 X144.974 Y109.995 E0.02052
G1 X144.586 Y109.468 E0.02052
G1 X144.230 Y108.918 E0.02052
G1 X143.909 Y108.348 E0.02052
G1 X143.622 Y107.759 E0.02052
G1 X143.372 Y107.155 E0.02052
G1 X143.158 Y106.536 E0.02052
G1 X142.983 Y105.906 E0.02052
G1 X142.845 Y105.266 E0.02052
G1 X142.747 Y104.619 E0.02052
G1 X142.688 Y103.967 E0.02052
G1 X142.668 Y103.313 E0.02052
G1 X142.688 Y102.658 E0.02052
G1 X142.790 Y101.720 E0.02960
G1 X142.418 Y101.663 F10800.000
G1 F1200.000
G1 X142.474 Y101.291 E0.01179
G1 X142.616 Y100.629 E0.02124
G1 X142.798 Y99.977 E0.02123
G1 X143.020 Y99.334 E0.02134
G1 X143.278 Y98.711 E0.02114
G1 X143.575 Y98.102 E0.02124
G1 X143.908 Y97.512 E0.02124
G1 X144.275 Y96.943 E0.02124
G1 X144.677 Y96.398 E0.02124
G1 X145.110 Y95.877 E0.02124
G1 X145.575 Y95.384 E0.02124
G1 X146.068 Y94.920 E0.02124
G1 X146.588 Y94.486 E0.02124
G1 X147.134 Y94.085 E0.02124
G1 X147.702 Y93.717 E0.02124
G1 X148.292 Y93.384 E0.02124
G1 X148.901 Y93.088 E0.02124
G1 X149.527 Y92.829 E0.02123
G1 X150.170 Y92.607 E0.02134
G1 X150.820 Y92.426 E0.02114
G1 X151.482 Y92.284 E0.02124
G1 X152.152 Y92.182 E0.02124
G1 X152.826 Y92.120 E0.02123
G1 X153.506 Y92.100 E0.02134
G1 X154.180 Y92.120 E0.02114
G1 X154.855 Y92.182 E0.02124
G1 X155.524 Y92.284 E0.02124
G1 X156.186 Y92.426 E0.02124
G1 X156.839 Y92.608 E0.02124
G1 X157.479 Y92.829 E0.02124
G1 X158.105 Y93.088 E0.02124
G1 X158.714 Y93.384 E0.02124
G1 X159.304 Y93.717 E0.02124
G1 X159.873 Y94.085 E0.02124
G1 X160.418 Y94.486 E0.02124
G1 X160.938 Y94.920 E0.02124
G1 X161.432 Y95.384 E0.02124
G1 X161.896 Y95.877 E0.02124
G1 X162.329 Y96.398 E0.02124
G1 X162.731 Y96.943 E0.02124
G1 X163.099 Y97.512 E0.02124
G1 X163.431 Y98.102 E0.02124
G1 X163.728 Y98.711 E0.02124
G1 X163.987 Y99.337 E0.02124
G1 X164.208 Y99.977 E0.02124
G1 X164.390 Y100.629 E0.02124
G1 X164.532 Y101.291 E0.02124
G1 X164.634 Y101.961 E0.02124
G1 X164.695 Y102.636 E0.02124
G1 X164.716 Y103.313 E0.02124
G1 X164.695 Y103.990 E0.02124
G1 X164.634 Y104.664 E0.02124
G1 X164.532 Y105.334 E0.02124
G1 X164.390 Y105.996 E0.02124
G1 X164.208 Y106.648 E0.02124
G1 X163.987 Y107.289 E0.02124
G1 X163.728 Y107.914 E0.02124
G1 X163.431 Y108.523 E0.02124
G1 X163.099 Y109.113 E0.02124
G1 X162.731 Y109.682 E0.02124
G1 X162.329 Y110.228 E0.02124
G1 X161.896 Y110.748 E0.02124
G1 X161.432 Y111.241 E0.02124
G1 X160.938 Y111.705 E0.02124
G1 X160.418 Y112.139 E0.02124
G1 X159.873 Y112.540 E0.02124
G1 X159.304 Y112.908 E0.02124
G1 X158.714 Y113.241 E0.02124
G1 X158.105 Y113.537 E0.02124
G1 X157.479 Y113.796 E0.02123
G1 X156.836 Y114.018 E0.02134
G1 X156.186 Y114.199 E0.02114
G1 X155.524 Y114.341 E0.02124
G1 X154.855 Y114.443 E0.02124
G1 X154.180 Y114.505 E0.02124
G1 X153.503 Y114.525 E0.02123
G1 X152.823 Y114.504 E0.02134
G1 X152.152 Y114.443 E0.02114
G1 X151.482 Y114.341 E0.02124
G1 X150.820 Y114.199 E0.02124
G1 X150.167 Y114.017 E0.02124
G1 X149.527 Y113.796 E0.02124
G1 X148.901 Y113.537 E0.02124
G1 X148.292 Y113.241 E0.02124
G1 X147.702 Y112.908 E0.02124
G1 X147.134 Y112.540 E0.02124
G1 X146.588 Y112.139 E0.02124
G1 X146.068 Y111.705 E0.02124
G1 X145.575 Y111.241 E0.02124
G1 X145.110 Y110.748 E0.02124
G1 X144.677 Y110.228 E0.02124
G1 X144.275 Y109.682 E0.02124
G1 X143.908 Y109.113 E0.02124
G1 X143.575 Y108.523 E0.02124
G1 X143.278 Y107.914 E0.02124
G1 X143.019 Y107.289 E0.02124
G1 X142.798 Y106.648 E0.02124
G1 X142.616 Y105.996 E0.02124
G1 X142.474 Y105.334 E0.02124
G1 X142.372 Y104.664 E0.02124
G1 X142.311 Y103.990 E0.02124
G1 X142.291 Y103.313 E0.02124
G1 X142.311 Y102.636 E0.02124
G1 X142.409 Y101.723 E0.02879
G1 X142.036 Y101.666 F10800.000
;TYPE:External perimeter
G1 F1200.000
G1 X142.103 Y101.223 E0.01403
G1 X142.250 Y100.539 E0.02195
G1 X142.438 Y99.865 E0.02195
G1 X142.668 Y99.200 E0.02205
G1 X142.934 Y98.556 E0.02185
G1 X143.241 Y97.926 E0.02195
G1 X143.585 Y97.317 E0.02195
G1 X143.965 Y96.729 E0.02195
G1 X144.380 Y96.165 E0.02195
G1 X144.828 Y95.627 E0.02195
G1 X145.308 Y95.117 E0.02195
G1 X145.818 Y94.637 E0.02195
G1 X146.355 Y94.189 E0.02195
G1 X146.919 Y93.774 E0.02195
G1 X147.507 Y93.394 E0.02195
G1 X148.117 Y93.050 E0.02195
G1 X148.746 Y92.744 E0.02195
G1 X149.393 Y92.476 E0.02195
G1 X150.058 Y92.247 E0.02205
G1 X150.729 Y92.059 E0.02185
G1 X151.414 Y91.913 E0.02195
G1 X152.106 Y91.807 E0.02195
G1 X152.803 Y91.744 E0.02195
G1 X153.506 Y91.723 E0.02205
G1 X154.203 Y91.744 E0.02185
G1 X154.900 Y91.807 E0.02195
G1 X155.592 Y91.913 E0.02195
G1 X156.277 Y92.059 E0.02195
G1 X156.951 Y92.247 E0.02195
G1 X157.613 Y92.476 E0.02195
G1 X158.260 Y92.744 E0.02195
G1 X158.889 Y93.050 E0.02195
G1 X159.499 Y93.394 E0.02195
G1 X160.087 Y93.774 E0.02195
G1 X160.651 Y94.189 E0.02195
G1 X161.189 Y94.637 E0.02195
G1 X161.698 Y95.117 E0.02195
G1 X162.178 Y95.627 E0.02195
G1 X162.626 Y96.165 E0.02195
G1 X163.041 Y96.729 E0.02195
G1 X163.421 Y97.317 E0.02195
G1 X163.765 Y97.926 E0.02195
G1 X164.072 Y98.556 E0.02195
G1 X164.340 Y99.203 E0.02195
G1 X164.568 Y99.865 E0.02195
G1 X164.756 Y100.539 E0.02195
G1 X164.903 Y101.223 E0.02195
G1 X165.008 Y101.916 E0.02195
G1 X165.072 Y102.613 E0.02195
G1 X165.093 Y103.313 E0.02195
G1 X165.072 Y104.012 E0.02195
G1 X165.008 Y104.710 E0.02195
G1 X164.903 Y105.402 E0.02195
G1 X164.756 Y106.086 E0.02195
G1 X164.568 Y106.761 E0.02195
G1 X164.340 Y107.422 E0.02195
G1 X164.072 Y108.069 E0.02195
G1 X163.765 Y108.699 E0.02195
G1 X163.421 Y109.308 E0.02195
G1 X163.041 Y109.896 E0.02195
G1 X162.626 Y110.460 E0.02195
G1 X162.178 Y110.998 E0.02195
G1 X161.698 Y111.508 E0.02195
G1 X161.189 Y111.988 E0.02195
G1 X160.651 Y112.436 E0.02195
G1 X160.087 Y112.851 E0.02195
G1 X159.499 Y113.231 E0.02195
G1 X158.889 Y113.575 E0.02195
G1 X158.260 Y113.881 E0.02195
G1 X157.613 Y114.149 E0.02195
G1 X156.948 Y114.378 E0.02205
G1 X156.277 Y114.566 E0.02185
G1 X155.592 Y114.712 E0.02195
G1 X154.900 Y114.818 E0.02195
G1 X154.203 Y114.881 E0.02195
G1 X153.503 Y114.902 E0.02195
G1 X152.800 Y114.881 E0.02205
G1 X152.106 Y114.818 E0.02185
G1 X151.414 Y114.712 E0.02195
G1 X150.729 Y114.566 E0.02195
G1 X150.055 Y114.378 E0.02195
G1 X149.393 Y114.149 E0.02195
G1 X148.746 Y113.881 E0.02195
