; generated by PrusaSlicer 2.3.0+win64 on 2021-03-23 at 14:13:30 UTC

; 

; external perimeters extrusion width = 0.45mm
; perimeters extrusion width = 0.45mm
; infill extrusion width = 0.45mm
; solid infill extrusion width = 0.45mm
; top infill extrusion width = 0.40mm
; support material extrusion width = 0.35mm
; first layer extrusion width = 0.42mm

M73 P0 R40
M73 Q0 S40
M201 X1000 Y1000 Z200 E5000 ; sets maximum accelerations, mm/sec^2
M203 X200 Y200 Z12 E120 ; sets maximum feedrates, mm/sec
M204 P1250 R1250 T1250 ; sets acceleration (P, T) and retract acceleration (R), mm/sec^2
M205 X8.00 Y8.00 Z0.40 E4.50 ; sets the jerk limits, mm/sec
M205 S0 T0 ; sets the minimum extruding and travel feed rate, mm/sec
M107
;TYPE:Custom
M862.3 P "MK3S" ; printer model check
M862.1 P0.4 ; nozzle diameter check
M115 U3.9.3 ; tell printer latest fw version
G90 ; use absolute coordinates
M83 ; extruder relative mode
M104 S215 ; set extruder temp
M140 S60 ; set bed temp
M190 S60 ; wait for bed temp
M109 S215 ; wait for extruder temp
G28 W ; home all without mesh bed level
G80 ; mesh bed leveling
G1 Y-3.0 F1000.0 ; go outside print area
G92 E0.0
G1 X60.0 E9.0 F1000.0 ; intro line
G1 X100.0 E12.5 F1000.0 ; intro line
G92 E0.0
M221 S95

; Don't change E values below. Excessive value can damage the printer.
M907 E430 ; set extruder motor current
G21 ; set units to millimeters
G90 ; use absolute coordinates
M83 ; use relative distances for extrusion
M900 K0.05 ; Filament gcode LA 1.5
M900 K30 ; Filament gcode LA 1.0
;LAYER_CHANGE
;Z:0.2
;HEIGHT:0.2
;BEFORE_LAYER_CHANGE
G92 E0.0
;0.2


M73 P0 R39
G1 E-0.80000 F2100.000
G1 Z0.400 F10800.000
;AFTER_LAYER_CHANGE
;0.2
G1 X140.920 Y76.607
G1 Z0.200
G1 E0.80000 F2100.000
M204 S1000
;TYPE:Skirt
;WIDTH:0.42
G1 F1200.000
G1 X141.404 Y77.267 E0.02567
G1 X141.592 Y77.797 E0.01763
G1 X143.740 Y87.660 E0.31649
G1 X143.969 Y108.395 E0.65017
G1 X143.967 Y115.143 E0.21159
G1 X143.859 Y115.768 E0.01989
G1 X143.588 Y116.346 E0.02000
G1 X143.173 Y116.830 E0.02000
G1 X142.644 Y117.187 E0.02000
G1 X142.132 Y117.371 E0.01704
G1 X141.596 Y117.433 E0.01692
G1 X108.328 Y117.262 E1.04313
G1 X107.699 Y117.155 E0.02000
G1 X107.121 Y116.884 E0.02000
G1 X106.636 Y116.470 E0.02000
G1 X106.277 Y115.938 E0.02012
G1 X106.098 Y115.445 E0.01645
G1 X106.032 Y114.925 E0.01645
G1 X105.805 Y94.225 E0.64906
G1 X105.807 Y87.458 E0.21218
G1 X108.007 Y77.601 E0.31666
G1 X108.203 Y77.151 E0.01538
G1 X108.487 Y76.752 E0.01538
G1 X108.847 Y76.418 E0.01538
G1 X109.268 Y76.166 E0.01538
G1 X119.385 Y72.050 E0.34245
G1 X120.252 Y71.888 E0.02767
G1 X129.358 Y72.058 E0.28556
G1 X129.885 Y72.131 E0.01668
G1 X140.241 Y76.150 E0.34831
G1 X140.871 Y76.573 E0.02379
;WIPE_START
G1 F8640.000
G1 X141.404 Y77.267 E-0.20211
G1 X141.592 Y77.797 E-0.12986
G1 X141.986 Y79.609 E-0.42802
;WIPE_END
G1 E-0.04000 F2100.000
G1 Z0.600 F10800.000
G1 X115.041 Y73.614
G1 Z0.200
G1 E0.80000 F2100.000
G1 F1200.000
G1 X109.447 Y73.650 E0.17541
G1 X108.515 Y73.914 E0.03038
G1 X107.689 Y74.334 E0.02904
G1 X106.146 Y75.959 E0.07028
G1 X105.740 Y76.909 E0.03238
G1 X105.560 Y77.882 E0.03102
G1 X105.560 Y83.510 E0.17647
G1 X105.291 Y83.669 E0.00978
G1 X104.131 Y84.814 E0.05111
G1 X103.582 Y85.817 E0.03586
G1 X103.279 Y87.059 E0.04008
G1 X103.332 Y95.030 E0.24994
M73 Q0 S39
G1 X103.740 Y96.329 E0.04269
G1 X104.308 Y97.226 E0.03329
G1 X105.244 Y98.153 E0.04130
G1 X105.662 Y98.402 E0.01525
;WIPE_START
G1 F8640.000
G1 X105.244 Y98.153 E-0.11233
G1 X104.308 Y97.226 E-0.30416
G1 X103.740 Y96.329 E-0.24517
G1 X103.612 Y95.923 E-0.09835
;WIPE_END
G1 E-0.04000 F2100.000
G1 Z0.600 F10800.000
G1 X105.726 Y104.226
G1 Z0.200
G1 E0.80000 F2100.000
G1 F1200.000
G1 X105.518 Y104.349 E0.00757
G1 X104.358 Y105.494 E0.05112
G1 X103.828 Y106.447 E0.03418
G1 X103.532 Y107.540 E0.03553
G1 X103.528 Y115.508 E0.24981
G1 X103.835 Y116.691 E0.03833
G1 X104.350 Y117.669 E0.03467
G1 X105.206 Y118.611 E0.03992
G1 X106.193 Y119.282 E0.03741
G1 X107.928 Y119.788 E0.05667
G1 X141.184 Y119.788 E1.04272
G1 X141.437 Y119.761 E0.00797
G1 X142.242 Y119.773 E0.02524
G1 X143.513 Y119.472 E0.04097
G1 X144.403 Y119.009 E0.03144
G1 X145.373 Y118.132 E0.04099
G1 X146.026 Y117.179 E0.03624
G1 X146.494 Y115.589 E0.05196
G1 X146.494 Y107.930 E0.24015
G1 X146.001 Y106.231 E0.05548
G1 X145.345 Y105.244 E0.03714
G1 X144.364 Y104.350 E0.04162
G1 X144.214 Y104.254 E0.00561
G1 X144.209 Y98.321 E0.18601
G1 X145.233 Y97.351 E0.04423
G1 X145.828 Y96.444 E0.03402
G1 X146.213 Y95.255 E0.03917
G1 X146.252 Y87.190 E0.25289
G1 X145.982 Y86.034 E0.03722
G1 X145.433 Y84.966 E0.03766
G1 X144.436 Y83.892 E0.04595
G1 X143.972 Y83.607 E0.01707
G1 X143.873 Y77.115 E0.20359
G1 X143.600 Y76.364 E0.02506
G1 X143.208 Y75.668 E0.02503
G1 X142.344 Y74.721 E0.04020
G1 X141.371 Y74.062 E0.03684
G1 X140.159 Y73.661 E0.04003
G1 X134.238 Y73.618 E0.18564
G1 X134.157 Y73.586 F10800.000
G1 F1200.000
G1 X133.721 Y72.276 E0.04328
G1 X132.989 Y71.193 E0.04101
G1 X131.934 Y70.275 E0.04385
G1 X131.127 Y69.870 E0.02831
G1 X129.842 Y69.544 E0.04156
G1 X120.661 Y69.532 E0.28787
M73 P1 R39
M73 Q1 S39
G1 X120.402 Y69.559 E0.00817
G1 X119.603 Y69.555 E0.02505
G1 X118.945 Y69.641 E0.02081
G1 X117.323 Y70.396 E0.05610
G1 X116.372 Y71.296 E0.04105
G1 X115.768 Y72.233 E0.03496
G1 X115.406 Y73.349 E0.03678
G1 X115.393 Y73.470 E0.00384
G1 X115.760 Y73.728 F10800.000
G1 F1200.000
G1 X115.748 Y73.987 E0.00812
G1 X115.116 Y73.990 E0.01980
G1 X115.819 Y73.297 F10800.000
G1 F1200.000
G1 X116.119 Y72.373 E0.03047
G1 X116.650 Y71.552 E0.03064
G1 X117.513 Y70.723 E0.03752
G1 X119.023 Y70.011 E0.05236
G1 X119.639 Y69.931 E0.01946
G1 X120.422 Y69.937 E0.02455
G1 X120.671 Y69.909 E0.00788
G1 X129.818 Y69.921 E0.28677
G1 X131.012 Y70.229 E0.03868
G1 X131.742 Y70.600 E0.02565
G1 X132.722 Y71.459 E0.04087
G1 X133.393 Y72.464 E0.03789
G1 X133.702 Y73.410 E0.03121
G1 X133.779 Y73.844 F10800.000
G1 F1200.000
G1 X133.789 Y73.992 E0.00464
G1 X134.166 Y73.994 E0.01182
;WIPE_START
G1 F8640.000
G1 X133.789 Y73.992 E-0.08703
G1 X133.779 Y73.844 E-0.03414
;WIPE_END
G1 E-0.67883 F2100.000
G1 Z0.600 F10800.000
G1 X135.229 Y74.002
G1 Z0.200
G1 E0.80000 F2100.000
G1 F1200.000
G1 X140.126 Y74.038 E0.15357
G1 X141.183 Y74.389 E0.03490
G1 X142.081 Y74.992 E0.03392
G1 X142.914 Y75.906 E0.03877
G1 X143.262 Y76.533 E0.02249
G1 X143.508 Y77.213 E0.02267
G1 X143.597 Y83.825 E0.20736
G1 X144.180 Y84.171 E0.02123
G1 X145.111 Y85.164 E0.04266
G1 X145.621 Y86.145 E0.03468
G1 X145.875 Y87.211 E0.03438
G1 X145.845 Y95.169 E0.24950
G1 X145.497 Y96.261 E0.03592
G1 X144.958 Y97.093 E0.03111
G1 X144.042 Y97.959 E0.03951
;WIPE_START
G1 F8640.000
G1 X144.958 Y97.093 E-0.29094
G1 X145.497 Y96.261 E-0.22913
G1 X145.813 Y95.270 E-0.23993
;WIPE_END
G1 E-0.04000 F2100.000
G1 Z0.600 F10800.000
G1 X144.116 Y104.638
G1 Z0.200
G1 E0.80000 F2100.000
G1 F1200.000
G1 X145.073 Y105.507 E0.04054
G1 X145.670 Y106.414 E0.03405
G1 X146.117 Y107.957 E0.05035
G1 X146.117 Y115.561 E0.23844
G1 X145.674 Y117.042 E0.04845
G1 X145.103 Y117.868 E0.03149
G1 X144.205 Y118.687 E0.03810
G1 X143.401 Y119.111 E0.02849
G1 X142.223 Y119.396 E0.03800
G1 X141.419 Y119.384 E0.02523
G1 X141.173 Y119.411 E0.00773
G1 X107.956 Y119.411 E1.04151
G1 X106.330 Y118.929 E0.05317
G1 X105.439 Y118.314 E0.03394
G1 X104.646 Y117.435 E0.03714
G1 X104.194 Y116.574 E0.03049
G1 X103.905 Y115.483 E0.03539
G1 X103.902 Y107.613 E0.24675
G1 X104.169 Y106.609 E0.03257
G1 X104.674 Y105.702 E0.03257
G1 X105.731 Y104.668 E0.04634
G1 X106.105 Y104.448 F10800.000
G1 F1200.000
G1 X106.164 Y104.416 E0.00209
G1 X106.164 Y98.482 E0.18604
G1 X106.203 Y98.280 E0.00647
G1 X106.037 Y98.184 E0.00603
G1 X105.657 Y97.964 F10800.000
G1 F1200.000
G1 X105.490 Y97.867 E0.00605
G1 X104.613 Y97.004 E0.03857
G1 X104.092 Y96.192 E0.03027
G1 X103.700 Y94.944 E0.04099
G1 X103.656 Y87.081 E0.24656
G1 X103.941 Y85.933 E0.03708
G1 X104.447 Y85.022 E0.03267
G1 X105.534 Y83.959 E0.04768
G1 X105.937 Y83.737 E0.01442
G1 X105.937 Y77.900 E0.18301
G1 X106.106 Y77.000 E0.02870
G1 X106.478 Y76.140 E0.02938
G1 X107.889 Y74.654 E0.06424
G1 X108.636 Y74.272 E0.02629
G1 X109.525 Y74.020 E0.02897
G1 X114.102 Y73.996 E0.14354
G1 X114.181 Y74.371 F10800.000
G1 F1200.000
G1 X116.117 Y74.363 E0.06071
G1 X116.140 Y73.574 E0.02475
G1 X116.276 Y73.111 F10800.000
G1 F1200.000
G1 X116.470 Y72.513 E0.01973
G1 X116.928 Y71.807 E0.02639
G1 X117.704 Y71.049 E0.03400
G1 X119.102 Y70.381 E0.04857
G1 X119.674 Y70.307 E0.01809
G1 X120.442 Y70.314 E0.02407
G1 X120.682 Y70.286 E0.00760
G1 X129.792 Y70.298 E0.28564
G1 X130.896 Y70.589 E0.03576
G1 X131.547 Y70.924 E0.02299
G1 X132.453 Y71.725 E0.03792
G1 X133.043 Y72.605 E0.03321
G1 X133.248 Y73.234 E0.02072
G1 X133.395 Y73.695 F10800.000
G1 F1200.000
G1 X133.422 Y74.366 E0.02106
G1 X135.157 Y74.379 E0.05439
;WIPE_START
G1 F8640.000
G1 X133.422 Y74.366 E-0.40051
G1 X133.395 Y73.695 E-0.15507
;WIPE_END
G1 E-0.24442 F2100.000
G1 Z0.600 F10800.000
G1 X136.219 Y74.387
G1 Z0.200
G1 E0.80000 F2100.000
G1 F1200.000
G1 X140.092 Y74.415 E0.12145
G1 X141.036 Y74.738 E0.03128
G1 X141.818 Y75.263 E0.02952
G1 X142.620 Y76.142 E0.03733
G1 X142.924 Y76.700 E0.01989
G1 X143.142 Y77.310 E0.02033
G1 X143.223 Y84.047 E0.21125
G1 X143.926 Y84.451 E0.02544
G1 X144.789 Y85.363 E0.03936
G1 X145.260 Y86.257 E0.03170
G1 X145.498 Y87.234 E0.03151
G1 X145.477 Y95.082 E0.24608
G1 X145.146 Y96.121 E0.03419
G1 X144.655 Y96.867 E0.02799
G1 X144.037 Y97.448 E0.02661
G1 X143.663 Y97.747 F10800.000
G1 F1200.000
G1 X143.298 Y97.945 E0.01302
G1 X143.459 Y98.515 E0.01859
G1 X143.459 Y104.710 E0.19422
G1 X143.741 Y104.860 E0.01001
G1 X144.121 Y105.149 F10800.000
G1 F1200.000
G1 X144.801 Y105.769 E0.02884
G1 X145.339 Y106.595 E0.03093
G1 X145.739 Y107.983 E0.04528
G1 X145.739 Y115.534 E0.23676
G1 X145.346 Y116.854 E0.04317
G1 X144.831 Y117.606 E0.02858
G1 X144.005 Y118.367 E0.03521
G1 X143.287 Y118.751 E0.02554
G1 X142.204 Y119.018 E0.03498
G1 X141.399 Y119.007 E0.02524
G1 X141.162 Y119.034 E0.00748
G1 X107.983 Y119.034 E1.04030
G1 X106.518 Y118.601 E0.04790
G1 X105.703 Y118.044 E0.03097
G1 X104.967 Y117.236 E0.03424
G1 X104.552 Y116.454 E0.02776
G1 X104.282 Y115.457 E0.03239
G1 X104.273 Y107.686 E0.24365
G1 X104.527 Y106.730 E0.03103
G1 X104.989 Y105.911 E0.02946
G1 X105.736 Y105.187 E0.03264
G1 X106.110 Y104.873 F10800.000
G1 F1200.000
G1 X106.541 Y104.646 E0.01526
G1 X106.541 Y98.514 E0.19226
G1 X106.653 Y98.101 E0.01344
G1 X106.032 Y97.748 E0.02240
G1 X105.652 Y97.498 F10800.000
G1 F1200.000
G1 X104.917 Y96.780 E0.03221
G1 X104.443 Y96.053 E0.02720
G1 X104.068 Y94.858 E0.03927
G1 X104.034 Y87.104 E0.24315
G1 X104.300 Y86.051 E0.03405
G1 X104.762 Y85.232 E0.02948
G1 X105.775 Y84.250 E0.04424
G1 X106.314 Y83.967 E0.01907
G1 X106.314 Y77.918 E0.18966
G1 X106.472 Y77.093 E0.02635
G1 X106.810 Y76.322 E0.02639
G1 X108.091 Y74.974 E0.05829
G1 X108.757 Y74.629 E0.02352
G1 X109.603 Y74.390 E0.02755
G1 X113.170 Y74.375 E0.11187
G1 X113.252 Y74.749 F10800.000
G1 F1200.000
G1 X116.490 Y74.739 E0.10153
G1 X116.510 Y73.613 E0.03529
G1 X116.581 Y73.394 E0.00722
G1 X116.733 Y72.925 F10800.000
G1 F1200.000
G1 X116.821 Y72.654 E0.00895
G1 X117.232 Y72.031 E0.02340
G1 X117.898 Y71.374 E0.02933
G1 X119.181 Y70.751 E0.04474
G1 X119.709 Y70.682 E0.01669
G1 X120.462 Y70.691 E0.02363
G1 X120.694 Y70.663 E0.00731
G1 X129.767 Y70.676 E0.28448
G1 X130.777 Y70.947 E0.03279
G1 X131.351 Y71.247 E0.02032
G1 X132.184 Y71.991 E0.03501
G1 X132.692 Y72.747 E0.02858
G1 X132.794 Y73.057 E0.01023
G1 X132.945 Y73.520 F10800.000
G1 F1200.000
G1 X133.027 Y73.772 E0.00829
G1 X133.052 Y74.741 E0.03041
G1 X136.138 Y74.759 E0.09674
;WIPE_START
G1 F8640.000
G1 X133.052 Y74.741 E-0.71243
G1 X133.047 Y74.535 E-0.04757
;WIPE_END
G1 E-0.04000 F2100.000
G1 Z0.600 F10800.000
G1 X137.196 Y74.766
G1 Z0.200
G1 E0.80000 F2100.000
G1 F1200.000
G1 X140.002 Y74.782 E0.08798
G1 X140.849 Y75.066 E0.02803
G1 X141.556 Y75.535 E0.02661
G1 X142.301 Y76.345 E0.03448
G1 X142.574 Y76.841 E0.01776
G1 X142.777 Y77.407 E0.01886
G1 X142.831 Y82.598 E0.16275
;WIPE_START
G1 F8640.000
G1 X142.796 Y79.306 E-0.76000
;WIPE_END
G1 E-0.04000 F2100.000
G1 Z0.600 F10800.000
G1 X143.243 Y84.492
G1 Z0.200
G1 E0.80000 F2100.000
G1 F1200.000
G1 X143.675 Y84.733 E0.01550
G1 X144.470 Y85.564 E0.03605
G1 X144.900 Y86.372 E0.02871
G1 X145.121 Y87.257 E0.02860
G1 X145.109 Y94.995 E0.24263
G1 X144.795 Y95.980 E0.03242
G1 X144.355 Y96.638 E0.02482
G1 X144.031 Y96.940 E0.01387
G1 X143.658 Y97.287 F10800.000
G1 F1200.000
G1 X143.557 Y97.381 E0.00433
G1 X142.844 Y97.754 E0.02523
G1 X143.082 Y98.545 E0.02589
G1 X143.082 Y104.942 E0.20058
G1 X143.662 Y105.239 E0.02042
G1 X143.746 Y105.316 E0.00357
G1 X144.127 Y105.660 F10800.000
G1 F1200.000
G1 X144.500 Y105.998 E0.01578
G1 X144.986 Y106.730 E0.02755
G1 X145.362 Y108.011 E0.04185
G1 X145.362 Y115.506 E0.23500
G1 X144.994 Y116.715 E0.03964
G1 X144.559 Y117.344 E0.02397
G1 X143.803 Y118.047 E0.03239
G1 X143.171 Y118.392 E0.02258
G1 X142.184 Y118.641 E0.03190
G1 X141.378 Y118.629 E0.02527
G1 X141.150 Y118.657 E0.00721
G1 X108.011 Y118.657 E1.03905
M73 P2 R39
M73 Q2 S39
G1 X106.657 Y118.249 E0.04435
G1 X105.937 Y117.747 E0.02751
G1 X105.263 Y117.001 E0.03152
G1 X104.910 Y116.334 E0.02369
G1 X104.659 Y115.430 E0.02939
G1 X104.644 Y107.759 E0.24053
G1 X104.885 Y106.851 E0.02946
G1 X105.302 Y106.123 E0.02630
G1 X105.742 Y105.701 E0.01912
G1 X106.115 Y105.343 F10800.000
G1 F1200.000
G1 X106.241 Y105.222 E0.00548
G1 X106.918 Y104.880 E0.02376
G1 X106.918 Y98.544 E0.19866
G1 X107.136 Y97.815 E0.02385
G1 X106.615 Y97.657 E0.01708
G1 X106.027 Y97.319 E0.02125
G1 X105.646 Y96.967 F10800.000
G1 F1200.000
G1 X105.219 Y96.554 E0.01864
G1 X104.795 Y95.914 E0.02406
G1 X104.436 Y94.773 E0.03752
G1 X104.411 Y87.127 E0.23972
G1 X104.659 Y86.171 E0.03098
G1 X105.075 Y85.443 E0.02628
G1 X106.014 Y84.543 E0.04081
G1 X106.296 Y84.400 E0.00990
;WIPE_START
G1 F8640.000
G1 X106.014 Y84.543 E-0.07292
G1 X105.075 Y85.443 E-0.30051
G1 X104.659 Y86.171 E-0.19354
G1 X104.449 Y86.980 E-0.19303
;WIPE_END
G1 E-0.04000 F2100.000
G1 Z0.600 F10800.000
G1 X106.691 Y82.633
G1 Z0.200
G1 E0.80000 F2100.000
G1 F1200.000
G1 X106.691 Y77.937 E0.14726
G1 X106.838 Y77.187 E0.02395
G1 X107.141 Y76.505 E0.02340
G1 X108.294 Y75.294 E0.05243
G1 X108.879 Y74.986 E0.02071
G1 X109.680 Y74.760 E0.02611
G1 X112.244 Y74.752 E0.08039
G1 X112.329 Y75.124 F10800.000
G1 F1200.000
G1 X116.866 Y75.115 E0.14226
G1 X116.877 Y73.701 E0.04433
G1 X117.037 Y73.209 E0.01624
G1 X117.217 Y72.729 F10800.000
G1 F1200.000
G1 X117.534 Y72.257 E0.01783
G1 X118.094 Y71.698 E0.02480
G1 X119.261 Y71.120 E0.04084
G1 X119.744 Y71.058 E0.01526
G1 X120.484 Y71.069 E0.02322
G1 X120.706 Y71.040 E0.00702
G1 X129.740 Y71.053 E0.28327
G1 X130.656 Y71.305 E0.02976
G1 X131.154 Y71.569 E0.01770
G1 X131.886 Y72.223 E0.03078
G1 X132.335 Y72.879 E0.02493
G1 X132.491 Y73.344 F10800.000
G1 F1200.000
G1 X132.659 Y73.861 E0.01704
G1 X132.679 Y75.117 E0.03939
G1 X137.111 Y75.137 E0.13895
;WIPE_START
G1 F8640.000
G1 X133.819 Y75.122 E-0.76000
;WIPE_END
G1 E-0.04000 F2100.000
G1 Z0.600 F10800.000
G1 X138.165 Y75.142
G1 Z0.200
G1 E0.80000 F2100.000
G1 F1200.000
G1 X139.913 Y75.150 E0.05481
G1 X140.665 Y75.396 E0.02479
G1 X141.296 Y75.810 E0.02368
G1 X141.983 Y76.548 E0.03163
G1 X142.224 Y76.983 E0.01559
G1 X142.411 Y77.504 E0.01736
G1 X142.440 Y80.805 E0.10350
;WIPE_START
G1 F8640.000
G1 X142.411 Y77.514 E-0.76000
;WIPE_END
G1 E-0.04000 F2100.000
G1 Z0.600 F10800.000
G1 X142.456 Y82.651
G1 Z0.200
G1 E0.80000 F2100.000
G1 F1200.000
G1 X142.473 Y84.497 E0.05786
G1 X142.910 Y84.736 E0.01564
G1 X143.348 Y84.975 F10800.000
G1 F1200.000
G1 X143.423 Y85.015 E0.00266
G1 X144.179 Y85.806 E0.03429
G1 X144.541 Y86.487 E0.02420
G1 X144.744 Y87.281 E0.02569
G1 X144.741 Y94.909 E0.23915
G1 X144.444 Y95.839 E0.03061
G1 X144.026 Y96.435 E0.02285
G1 X143.652 Y96.780 F10800.000
G1 F1200.000
G1 X143.321 Y97.086 E0.01413
G1 X142.665 Y97.420 E0.02309
G1 X142.367 Y97.502 E0.00970
G1 X142.705 Y98.575 E0.03527
G1 X142.705 Y105.177 E0.20701
G1 X143.430 Y105.538 E0.02540
G1 X143.752 Y105.826 E0.01353
G1 X144.133 Y106.167 F10800.000
G1 F1200.000
